; LightBurn 1.2.01
; Marlin device profile, absolute coords
; Bounds: X3.16 Y5.31 to X95.13 Y37.7
G21
G90
; Cut @ 10 mm/sec, 25% power
M9
M05 
G0 X6.114 Y5.634 F6000
; Layer C00
M03 S63.75
G1 X7.441 F600
G1  Y10.439
G1 X6.355
G1 X6.241 Y10.226
G1 X6.007 Y9.917
G1 X5.727 Y9.654
G1 X5.406 Y9.442
G1 X5.051 Y9.286
G1 X4.734 Y9.173
G1  Y8.097
G1 X5.103 Y8.217
G1 X5.457 Y8.373
G1 X5.795 Y8.562
G1 X6.114 Y8.783
G1  Y5.634
M05 
G0 X10.394 Y6.687 F6000
M03 S63.75
G1 X10.296 Y6.862 F600
G1 X10.234 Y7.052
G1 X10.21 Y7.253
G1 X10.168 Y7.727
G1  Y8.202
G1 X10.204 Y8.675
G1 X10.281 Y9.144
G1 X10.329 Y9.276
G1 X10.407 Y9.39
G1 X10.51 Y9.481
G1 X10.634 Y9.545
G1 X10.827 Y9.566
G1 X11.008 Y9.516
G1 X11.16 Y9.405
G1 X11.264 Y9.242
G1 X11.35 Y8.933
G1 X11.405 Y8.617
G1 X11.43 Y8.298
G1  Y7.977
G1  Y7.703
G1 X11.413 Y7.43
G1 X11.375 Y7.159
G1 X11.315 Y6.892
G1 X11.283 Y6.786
G1 X11.231 Y6.69
G1 X11.16 Y6.606
G1 X11.073 Y6.538
G1 X10.974 Y6.488
G1 X10.869 Y6.46
G1 X10.759
G1 X10.65 Y6.47
G1 X10.525 Y6.532
G1 X10.394 Y6.687
M05 
G0 X9.175 Y6.392 F6000
M03 S63.75
G1 X9.303 Y6.193 F600
G1 X9.457 Y6.018
G1 X9.634 Y5.868
G1 X9.831 Y5.745
G1 X10.045 Y5.652
G1 X10.273 Y5.592
G1 X10.512 Y5.566
G1 X10.781 Y5.554
G1 X11.051
G1 X11.36 Y5.596
G1 X11.654 Y5.684
G1 X11.929 Y5.823
G1 X12.175 Y6.01
G1 X12.364 Y6.268
G1 X12.51 Y6.55
G1 X12.612 Y6.85
G1 X12.668 Y7.165
G1 X12.728 Y7.726
G1  Y8.288
G1 X12.653 Y8.846
G1 X12.518 Y9.394
G1 X12.42 Y9.616
G1 X12.29 Y9.817
G1 X12.133 Y9.993
G1 X11.953 Y10.144
G1 X11.751 Y10.265
G1 X11.533 Y10.355
G1 X11.301 Y10.412
G1 X11.059 Y10.432
G1 X10.686 Y10.447
G1 X10.319 Y10.402
G1 X9.964 Y10.298
G1 X9.628 Y10.137
G1 X9.398 Y9.944
G1 X9.212 Y9.712
G1 X9.074 Y9.448
G1 X8.989 Y9.161
G1 X8.886 Y8.523
G1 X8.866 Y7.88
G1 X8.93 Y7.24
G1 X9.077 Y6.611
G1 X9.175 Y6.392
M05 
G0 X13.002 Y5.557 F6000
M03 S63.75
G1 X13.666 F600
G1 X14.852 Y10.439
G1 X14.182
G1 X13.002 Y5.557
; Scan @ 10 mm/sec, 25% power
M9
M05 
G0 X5.864 Y5.65 F6000
; Layer C00
G91
G1 X0.25 F600
M03 S63.75
G1 X1.327
M05 
G1 X2.612 F6000
M03 S63.75
G1 X1.489 F600
M05 
G1 X1.483 F6000
M03 S63.75
G1 X0.664 F600
M05 
G1 X0.25
G1 X0.024Y0.1
G1 X-0.25
M03 S63.75
G1 X-0.664
M05 
G1 X-1.263 F6000
M03 S63.75
G1 X-1.963 F600
M05 
G1 X-2.382 F6000
M03 S63.75
G1 X-1.327 F600
M05 
G1 X-0.25
G1 Y0.1
G1 X0.25
M03 S63.75
G1 X1.327
M05 
G1 X2.221 F6000
M03 S63.75
G1 X2.303 F600
M05 
G1 X1.108 F6000
M03 S63.75
G1 X0.664 F600
M05 
G1 X0.25
G1 X0.024Y0.1
G1 X-0.25
M03 S63.75
G1 X-0.664
M05 
G1 X-1
M03 S63.75
G1 X-2.561
M05 
G1 X-2.095 F6000
M03 S63.75
G1 X-1.327 F600
M05 
G1 X-0.25
G1 Y0.1
G1 X0.25
M03 S63.75
G1 X1.327
M05 
G1 X1.987 F6000
M03 S63.75
G1 X2.777 F600
M05 
G1 X0.916
M03 S63.75
G1 X0.665
M05 
G1 X0.25
G1 X0.024Y0.1
G1 X-0.25
M03 S63.75
G1 X-0.665
M05 
G1 X-0.867
M03 S63.75
G1 X-2.938
M05 
G1 X-1.899 F6000
M03 S63.75
G1 X-1.327 F600
M05 
G1 X-0.25
G1 Y0.1
G1 X0.25
M03 S63.75
G1 X1.327
M05 
G1 X1.825 F6000
M03 S63.75
G1 X3.085 F600
M05 
G1 X0.819
M03 S63.75
G1 X0.664
M05 
G1 X0.25
G1 X0.025Y0.1
G1 X-0.25
M03 S63.75
G1 X-0.665
M05 
G1 X-0.788
M03 S63.75
G1 X-3.204
M05 
G1 X-1.761 F6000
M03 S63.75
G1 X-1.327 F600
M05 
G1 X-0.25
G1 Y0.1
G1 X0.25
M03 S63.75
G1 X1.327
M05 
G1 X1.708 F6000
M03 S63.75
G1 X3.309 F600
M05 
G1 X0.76
M03 S63.75
G1 X0.665
M05 
G1 X0.25
G1 X0.024Y0.1
G1 X-0.25
M03 S63.75
G1 X-0.665
M05 
G1 X-0.732
M03 S63.75
G1 X-1.42
M05 
G1 X-0.58
M03 S63.75
G1 X-1.406
M05 
G1 X-1.663 F6000
M03 S63.75
G1 X-1.327 F600
M05 
G1 X-0.25
G1 Y0.1
G1 X0.25
M03 S63.75
G1 X1.327
M05 
G1 X1.627 F6000
M03 S63.75
G1 X1.357 F600
M05 
G1 X0.772
M03 S63.75
G1 X1.347
M05 
G1 X0.722
M03 S63.75
G1 X0.665
M05 
G1 X0.25
G1 X0.025Y0.1
G1 X-0.25
M03 S63.75
G1 X-0.666
M05 
G1 X-0.712
M03 S63.75
G1 X-1.314
M05 
G1 X-0.905
M03 S63.75
G1 X-1.314
M05 
G1 X-1.604 F6000
M03 S63.75
G1 X-1.327 F600
M05 
G1 X-0.25
G1 Y0.1
G1 X0.25
M03 S63.75
G1 X1.327
M05 
G1 X1.58 F6000
M03 S63.75
G1 X1.282 F600
M05 
G1 X0.999
M03 S63.75
G1 X1.31
M05 
G1 X0.703
M03 S63.75
G1 X0.665
M05 
G1 X0.25
G1 X0.024Y0.1
G1 X-0.25
M03 S63.75
G1 X-0.665
M05 
G1 X-0.709
M03 S63.75
G1 X-1.302
M05 
G1 X-1.06 F6000
M03 S63.75
G1 X-1.27 F600
M05 
G1 X-1.557 F6000
M03 S63.75
G1 X-1.327 F600
M05 
G1 X-0.25
G1 Y0.1
G1 X0.25
M03 S63.75
G1 X1.327
M05 
G1 X1.533 F6000
M03 S63.75
G1 X1.261 F600
M05 
G1 X1.116 F6000
M03 S63.75
G1 X1.297 F600
M05 
G1 X0.715
M03 S63.75
G1 X0.666
M05 
G1 X0.25
G1 X0.024Y0.1
G1 X-0.25
M03 S63.75
G1 X-0.666
M05 
G1 X-0.722
M03 S63.75
G1 X-1.292
M05 
G1 X-1.15 F6000
M03 S63.75
G1 X-1.272 F600
M05 
G1 X-1.51 F6000
M03 S63.75
G1 X-1.327 F600
M05 
G1 X-0.25
G1 Y0.1
G1 X0.25
M03 S63.75
G1 X1.327
M05 
G1 X1.488 F6000
M03 S63.75
G1 X1.281 F600
M05 
G1 X1.178 F6000
M03 S63.75
G1 X1.289 F600
M05 
G1 X0.734
M03 S63.75
G1 X0.666
M05 
G1 X0.25
G1 X0.025Y0.1
G1 X-0.25
M03 S63.75
G1 X-0.667
M05 
G1 X-0.747
M03 S63.75
G1 X-1.286
M05 
G1 X-1.2 F6000
M03 S63.75
G1 X-1.283 F600
M05 
G1 X-1.478 F6000
M03 S63.75
G1 X-1.327 F600
M05 
G1 X-0.25
G1 Y0.1
G1 X0.25
M03 S63.75
G1 X1.327
M05 
G1 X1.468 F6000
M03 S63.75
G1 X1.284 F600
M05 
G1 X1.222 F6000
M03 S63.75
G1 X1.284 F600
M05 
G1 X0.76
M03 S63.75
G1 X0.667
M05 
G1 X0.25
G1 X0.024Y0.1
G1 X-0.25
M03 S63.75
G1 X-0.666
M05 
G1 X-0.775
M03 S63.75
G1 X-1.288
M05 
G1 X-1.237 F6000
M03 S63.75
G1 X-1.285 F600
M05 
G1 X-1.458 F6000
M03 S63.75
G1 X-1.327 F600
M05 
G1 X-0.25
G1 Y0.1
G1 X0.25
M03 S63.75
G1 X1.327
M05 
G1 X1.448 F6000
M03 S63.75
G1 X1.286 F600
M05 
G1 X1.251 F6000
M03 S63.75
G1 X1.294 F600
M05 
G1 X0.788
M03 S63.75
G1 X0.666
M05 
G1 X0.25
G1 X0.025Y0.1
G1 X-0.25
M03 S63.75
G1 X-0.667
M05 
G1 X-0.804
M03 S63.75
G1 X-1.299
M05 
G1 X-1.261 F6000
M03 S63.75
G1 X-1.289 F600
M05 
G1 X-1.438 F6000
M03 S63.75
G1 X-1.327 F600
M05 
G1 X-0.25
G1 Y0.1
G1 X0.25
M03 S63.75
G1 X1.327
M05 
G1 X1.428 F6000
M03 S63.75
G1 X1.299 F600
M05 
G1 X1.258 F6000
M03 S63.75
G1 X1.301 F600
M05 
G1 X0.829
M03 S63.75
G1 X0.667
M05 
G1 X0.25
G1 X0.024Y0.1
G1 X-0.25
M03 S63.75
G1 X-0.667
M05 
G1 X-0.854
M03 S63.75
G1 X-1.302
M05 
G1 X-1.257 F6000
M03 S63.75
G1 X-1.299 F600
M05 
G1 X-1.427 F6000
M03 S63.75
G1 X-1.327 F600
M05 
G1 X-0.25
G1 Y0.1
G1 X0.25
M03 S63.75
G1 X1.327
M05 
G1 X1.43 F6000
M03 S63.75
G1 X1.296 F600
M05 
G1 X1.258 F6000
M03 S63.75
G1 X1.3 F600
M05 
G1 X0.879
M03 S63.75
G1 X0.668
M05 
G1 X0.25
G1 X0.024Y0.1
G1 X-0.25
M03 S63.75
G1 X-0.667
M05 
G1 X-0.905
M03 S63.75
G1 X-1.297
M05 
G1 X-1.261 F6000
M03 S63.75
G1 X-1.292 F600
M05 
G1 X-1.433 F6000
M03 S63.75
G1 X-1.327 F600
M05 
G1 X-1.216 F6000
M03 S63.75
G1 X-0.164 F600
M05 
G1 X-0.25
G1 Y0.1
G1 X0.25
M03 S63.75
G1 X0.444
M05 
G1 X0.936
M03 S63.75
G1 X1.327
M05 
G1 X1.436 F6000
M03 S63.75
G1 X1.293 F600
M05 
G1 X1.259 F6000
M03 S63.75
G1 X1.294 F600
M05 
G1 X0.93
M03 S63.75
G1 X0.667
M05 
G1 X0.25
G1 X0.024Y0.1
G1 X-0.25
M03 S63.75
G1 X-0.667
M05 
G1 X-0.962
M03 S63.75
G1 X-1.289
M05 
G1 X-1.248 F6000
M03 S63.75
G1 X-1.298 F600
M05 
G1 X-1.439 F6000
M03 S63.75
G1 X-1.327 F600
M05 
G1 X-0.708
M03 S63.75
G1 X-0.672
M05 
G1 X-0.25
G1 Y0.1
G1 X0.25
M03 S63.75
G1 X0.862
M05 
G1 X0.518
M03 S63.75
G1 X1.327
M05 
G1 X1.442 F6000
M03 S63.75
G1 X1.303 F600
M05 
G1 X1.232 F6000
M03 S63.75
G1 X1.285 F600
M05 
G1 X0.998
M03 S63.75
G1 X0.668
M05 
G1 X0.25
G1 X0.024Y0.1
G1 X-0.25
M03 S63.75
G1 X-0.668
M05 
G1 X-1.035 F6000
M03 S63.75
G1 X-1.279 F600
M05 
G1 X-1.217 F6000
M03 S63.75
G1 X-1.304 F600
M05 
G1 X-1.449 F6000
M03 S63.75
G1 X-1.327 F600
M05 
G1 X-0.339
M03 S63.75
G1 X-1.041
M05 
G1 X-0.25
G1 Y0.1
G1 X0.25
M03 S63.75
G1 X1.189
M05 
G1 X0.191
M03 S63.75
G1 X1.327
M05 
G1 X1.465 F6000
M03 S63.75
G1 X1.296 F600
M05 
G1 X1.198 F6000
M03 S63.75
G1 X1.278 F600
M05 
G1 X1.071 F6000
M03 S63.75
G1 X0.668 F600
M05 
G1 X0.25
G1 X0.025Y0.1
G1 X-0.25
M03 S63.75
G1 X-0.668
M05 
G1 X-1.109 F6000
M03 S63.75
G1 X-1.283 F600
M05 
G1 X-1.166 F6000
M03 S63.75
G1 X-1.293 F600
M05 
G1 X-1.482 F6000
M03 S63.75
G1 X-1.327 F600
M05 
G1 X-0.047
M03 S63.75
G1 X-1.333
M05 
G1 X-0.25
G1 Y0.1
G1 X0.25
M03 S63.75
G1 X2.707
M05 
G1 X1.498 F6000
M03 S63.75
G1 X1.294 F600
M05 
G1 X1.132 F6000
M03 S63.75
G1 X1.287 F600
M05 
G1 X1.146 F6000
M03 S63.75
G1 X0.668 F600
M05 
G1 X0.25
G1 X0.024Y0.1
G1 X-0.25
M03 S63.75
G1 X-0.668
M05 
G1 X-1.195 F6000
M03 S63.75
G1 X-1.282 F600
M05 
G1 X-1.096 F6000
M03 S63.75
G1 X-1.294 F600
M05 
G1 X-1.514 F6000
M03 S63.75
G1 X-2.707 F600
M05 
G1 X-0.25
G1 Y0.1
G1 X0.25
M03 S63.75
G1 X2.707
M05 
G1 X1.53 F6000
M03 S63.75
G1 X1.295 F600
M05 
G1 X1.051 F6000
M03 S63.75
G1 X1.286 F600
M05 
G1 X1.243 F6000
M03 S63.75
G1 X0.669 F600
M05 
G1 X0.25
G1 X0.024Y0.1
G1 X-0.25
M03 S63.75
G1 X-0.669
M05 
G1 X-1.292 F6000
M03 S63.75
G1 X-1.288 F600
M05 
G1 X-1.007 F6000
M03 S63.75
G1 X-1.295 F600
M05 
G1 X-1.547 F6000
M03 S63.75
G1 X-2.707 F600
M05 
G1 X-0.25
G1 X0.216Y0.1
G1 X0.25
M03 S63.75
G1 X2.491
M05 
G1 X1.575 F6000
M03 S63.75
G1 X1.304 F600
M05 
G1 X0.939
M03 S63.75
G1 X1.295
M05 
G1 X1.34 F6000
M03 S63.75
G1 X0.669 F600
M05 
G1 X0.25
G1 X0.024Y0.1
G1 X-0.25
M03 S63.75
G1 X-0.669
M05 
G1 X-1.389 F6000
M03 S63.75
G1 X-1.334 F600
M05 
G1 X-0.815
M03 S63.75
G1 X-1.335
M05 
G1 X-1.604 F6000
M03 S63.75
G1 X-2.244 F600
M05 
G1 X-0.25
G1 X0.222Y0.1
G1 X0.25
M03 S63.75
G1 X2.022
M05 
G1 X1.634 F6000
M03 S63.75
G1 X1.4 F600
M05 
G1 X0.623
M03 S63.75
G1 X1.395
M05 
G1 X1.45 F6000
M03 S63.75
G1 X0.669 F600
M05 
G1 X0.25
G1 X0.024Y0.1
G1 X-0.25
M03 S63.75
G1 X-0.669
M05 
G1 X-1.518 F6000
M03 S63.75
G1 X-1.566 F600
M05 
G1 X-0.201
M03 S63.75
G1 X-1.554
M05 
G1 X-1.687 F6000
M03 S63.75
G1 X-1.871 F600
M05 
G1 X-0.25
G1 X0.152Y0.1
G1 X0.25
M03 S63.75
G1 X1.719
M05 
G1 X1.739 F6000
M03 S63.75
G1 X3.217 F600
M05 
G1 X1.594 F6000
M03 S63.75
G1 X0.669 F600
M05 
G1 X0.25
G1 X0.025Y0.1
G1 X-0.25
M03 S63.75
G1 X-0.67
M05 
G1 X-1.682 F6000
M03 S63.75
G1 X-3.09 F600
M05 
G1 X-1.802 F6000
M03 S63.75
G1 X-1.611 F600
M05 
G1 X-0.25
G1 X0.106Y0.1
G1 X0.25
M03 S63.75
G1 X1.505
M05 
G1 X1.882 F6000
M03 S63.75
G1 X2.937 F600
M05 
G1 X1.779 F6000
M03 S63.75
G1 X0.67 F600
M05 
G1 X0.25
G1 X0.024Y0.1
G1 X-0.25
M03 S63.75
G1 X-0.67
M05 
G1 X-1.892 F6000
M03 S63.75
G1 X-2.765 F600
M05 
G1 X-1.965 F6000
M03 S63.75
G1 X-1.408 F600
M05 
G1 X-0.25
G1 X0.075Y0.1
G1 X0.25
M03 S63.75
G1 X1.333
M05 
G1 X2.084 F6000
M03 S63.75
G1 X2.54 F600
M05 
G1 X2.023 F6000
M03 S63.75
G1 X0.669 F600
M05 
G1 X0.25
G1 X0.025Y0.1
G1 X-0.25
M03 S63.75
G1 X-0.67
M05 
G1 X-2.171 F6000
M03 S63.75
G1 X-2.285 F600
M05 
G1 X-2.215 F6000
M03 S63.75
G1 X-1.257 F600
M05 
G1 X-0.25
G1 X0.07Y0.1
G1 X0.25
M03 S63.75
G1 X1.187
M05 
G1 X2.424 F6000
M03 S63.75
G1 X1.911 F600
M05 
G1 X2.36 F6000
M03 S63.75
G1 X0.67 F600
M05 
G1 X0.25
G1 X0.024Y0.1
G1 X-0.25
M03 S63.75
G1 X-0.67
M05 
G1 X-2.615 F6000
M03 S63.75
G1 X-1.401 F600
M05 
G1 X-2.703 F6000
M03 S63.75
G1 X-1.134 F600
M05 
G1 X-0.25
G1 X8.786Y-0.197 F6000
G1 Y0.25 F600
M03 S63.75
G1 Y0.036
M05 
G1 Y0.25
G1 X-0.1
G1 Y-0.25
M03 S63.75
G1 Y-0.448
M05 
G1 Y-0.25
G1 X-0.1Y-0.411
G1 Y0.25
M03 S63.75
G1 Y0.859
M05 
G1 Y0.25
G1 X-0.1
G1 Y-0.25
M03 S63.75
G1 Y-1.271
M05 
G1 Y-0.25
G1 X-0.1Y-0.412
G1 Y0.25
M03 S63.75
G1 Y1.683
M05 
G1 Y0.25
G1 X-0.1
G1 Y-0.25
M03 S63.75
G1 Y-2.094
M05 
G1 Y-0.25
G1 X-0.1Y-0.412
G1 Y0.25
M03 S63.75
G1 Y2.506
M05 
G1 Y0.25
G1 X-0.1Y-0.159
G1 Y-0.25
M03 S63.75
G1 Y-2.759
M05 
G1 Y-0.25
G1 X-0.1Y-0.411
G1 Y0.25
M03 S63.75
G1 Y2.756
M05 
G1 Y0.25
G1 X-0.1Y-0.414
G1 Y-0.25
M03 S63.75
G1 Y-2.754
M05 
G1 Y-0.25
G1 X-0.1Y-0.412
G1 Y0.25
M03 S63.75
G1 Y2.752
M05 
G1 Y0.25
G1 X-0.1Y-0.413
G1 Y-0.25
M03 S63.75
G1 Y-2.75
M05 
G1 Y-0.25
G1 X-0.1Y-0.318
G1 Y0.25
M03 S63.75
G1 Y2.654
M05 
G1 Y0.25
G1 X-0.1Y-0.414
G1 Y-0.25
M03 S63.75
G1 Y-2.24
M05 
G1 Y-0.25
G1 X-0.1
G1 Y0.25
M03 S63.75
G1 Y1.826
M05 
G1 Y0.25
G1 X-0.1Y-0.414
G1 Y-0.25
M03 S63.75
G1 Y-1.412
M05 
G1 Y-0.25
G1 X-0.1
G1 Y0.25
M03 S63.75
G1 Y0.998
M05 
G1 Y0.25
G1 X-0.1Y-0.414
G1 Y-0.25
M03 S63.75
G1 Y-0.584
M05 
G1 Y-0.25
G1 X-0.1
G1 Y0.25
M03 S63.75
G1 Y0.17
M05 
G1 Y0.25
G1 X-0.4Y3.159 F6000
G1 Y-0.25 F600
M03 S63.75
G1 Y-1.861
M05 
G1 Y-0.25
G1 X-0.1Y-0.378
G1 Y0.25
M03 S63.75
G1 Y2.646
M05 
G1 Y0.25
G1 X-0.1Y0.27
G1 Y-0.25
M03 S63.75
G1 Y-3.142
M05 
G1 Y-0.25
G1 X-0.1Y-0.181
G1 Y0.25
M03 S63.75
G1 Y3.495
M05 
G1 Y0.25
G1 X-0.1Y0.135
G1 Y-0.25
M03 S63.75
G1 Y-3.767
M05 
G1 Y-0.25
G1 X-0.1Y-0.117
G1 Y0.25
M03 S63.75
G1 Y3.996
M05 
G1 Y0.25
G1 X-0.1Y0.086
G1 Y-0.25
M03 S63.75
G1 Y-4.158
M05 
G1 Y-0.25
G1 X-0.1Y-0.076
G1 Y0.25
M03 S63.75
G1 Y4.315
M05 
G1 Y0.25
G1 X-0.1Y0.061
G1 Y-0.25
M03 S63.75
G1 Y-4.431
M05 
G1 Y-0.25
G1 X-0.1Y-0.05
G1 Y0.25
M03 S63.75
G1 Y4.539
M05 
G1 Y0.25
G1 X-0.1Y0.042
G1 Y-0.25
M03 S63.75
G1 Y-4.63
M05 
G1 Y-0.25
G1 X-0.1Y-0.029
G1 Y0.25
M03 S63.75
G1 Y4.7
M05 
G1 Y0.25
G1 X-0.1Y0.026
G1 Y-0.25
M03 S63.75
G1 Y-4.756
M05 
G1 Y-0.25
G1 X-0.1Y-0.027
G1 Y0.25
M03 S63.75
G1 Y1.422
M05 
G1 Y1.942 F6000
M03 S63.75
G1 Y1.443 F600
M05 
G1 Y0.25
G1 X-0.1Y0.016
G1 Y-0.25
M03 S63.75
G1 Y-1.142
M05 
G1 Y-2.562 F6000
M03 S63.75
G1 Y-1.129 F600
M05 
G1 Y-0.25
G1 X-0.1Y-0.011
G1 Y0.25
M03 S63.75
G1 Y1.02
M05 
G1 Y2.825 F6000
M03 S63.75
G1 Y1.007 F600
M05 
G1 Y0.25
G1 X-0.1Y0.008
G1 Y-0.25
M03 S63.75
G1 Y-0.942
M05 
G1 Y-2.969 F6000
M03 S63.75
G1 Y-0.959 F600
M05 
G1 Y-0.25
G1 X-0.1
G1 Y0.246
M03 S63.75
G1 Y0.921
M05 
G1 Y3.054 F6000
M03 S63.75
G1 Y0.903 F600
M05 
G1 Y0.25
G1 X-0.1
G1 Y-0.246
M03 S63.75
G1 Y-0.88
M05 
G1 Y-3.102 F6000
M03 S63.75
G1 Y-0.903 F600
M05 
G1 Y-0.25
G1 X-0.1
G1 Y0.25
M03 S63.75
G1 Y0.901
M05 
G1 Y3.1 F6000
M03 S63.75
G1 Y0.888 F600
M05 
G1 Y0.25
G1 X-0.1
G1 Y-0.254
M03 S63.75
G1 Y-0.895
M05 
G1 Y-3.072 F6000
M03 S63.75
G1 Y-0.914 F600
M05 
G1 Y-0.25
G1 X-0.1
G1 Y0.254
M03 S63.75
G1 Y0.959
M05 
G1 Y2.975 F6000
M03 S63.75
G1 Y0.931 F600
M05 
G1 Y0.25
G1 X-0.1Y-0.012
G1 Y-0.25
M03 S63.75
G1 Y-0.995
M05 
G1 Y-2.793 F6000
M03 S63.75
G1 Y-1.056 F600
M05 
G1 Y-0.25
G1 X-0.1Y0.011
G1 Y0.25
M03 S63.75
G1 Y1.194
M05 
G1 Y2.518 F6000
M03 S63.75
G1 Y1.108 F600
M05 
G1 Y0.25
G1 X-0.1Y-0.025
G1 Y-0.25
M03 S63.75
G1 Y-1.465
M05 
G1 Y-1.889 F6000
M03 S63.75
G1 Y-1.425 F600
M05 
G1 Y-0.25
G1 X-0.1Y0.026
G1 Y0.25
M03 S63.75
G1 Y4.724
M05 
G1 Y0.25
G1 X-0.1Y-0.029
G1 Y-0.25
M03 S63.75
G1 Y-4.668
M05 
G1 Y-0.25
G1 X-0.1Y0.044
G1 Y0.25
M03 S63.75
G1 Y4.591
M05 
G1 Y0.25
G1 X-0.1Y-0.048
G1 Y-0.25
M03 S63.75
G1 Y-4.5
M05 
G1 Y-0.25
G1 X-0.1Y0.06
G1 Y0.25
M03 S63.75
G1 Y4.392
M05 
G1 Y0.25
G1 X-0.1Y-0.048
G1 Y-0.25
M03 S63.75
G1 Y-4.282
M05 
G1 Y-0.25
G1 X-0.1Y0.083
G1 Y0.25
M03 S63.75
G1 Y4.121
M05 
G1 Y0.25
G1 X-0.1Y-0.085
G1 Y-0.25
M03 S63.75
G1 Y-3.948
M05 
G1 Y-0.25
G1 X-0.1Y0.114
G1 Y0.25
M03 S63.75
G1 Y3.728
M05 
G1 Y0.25
G1 X-0.1Y-0.125
G1 Y-0.25
M03 S63.75
G1 Y-3.464
M05 
G1 Y-0.25
G1 X-0.1Y0.177
G1 Y0.25
M03 S63.75
G1 Y3.117
M05 
G1 Y0.25
G1 X-0.1Y-0.237
G1 Y-0.25
M03 S63.75
G1 Y-2.587
M05 
G1 Y-0.25
G1 X-0.1Y0.427
G1 Y0.25
M03 S63.75
G1 Y1.693
M05 
G1 Y0.25
G1 X-1.6Y1.563 F6000
G1 Y-0.25 F600
M03 S63.75
G1 Y-4.805
M05 
G1 Y-0.25
G1 X-0.1
G1 Y0.25
M03 S63.75
G1 Y4.805
M05 
G1 Y0.25
G1 X-0.1
G1 Y-0.25
M03 S63.75
G1 Y-4.805
M05 
G1 Y-0.25
G1 X-0.1
G1 Y0.25
M03 S63.75
G1 Y4.805
M05 
G1 Y0.25
G1 X-0.1
G1 Y-0.25
M03 S63.75
G1 Y-4.805
M05 
G1 Y-0.25
G1 X-0.1
G1 Y0.25
M03 S63.75
G1 Y4.805
M05 
G1 Y0.25
G1 X-0.1
G1 Y-0.25
M03 S63.75
G1 Y-4.805
M05 
G1 Y-0.25
G1 X-0.1
G1 Y0.25
M03 S63.75
G1 Y4.805
M05 
G1 Y0.25
G1 X-0.1
G1 Y-0.25
M03 S63.75
G1 Y-4.805
M05 
G1 Y-0.25
G1 X-0.1
G1 Y0.25
M03 S63.75
G1 Y4.805
M05 
G1 Y0.25
G1 X-0.1Y-0.022
G1 Y-0.25
M03 S63.75
G1 Y-4.783
M05 
G1 Y-0.25
G1 X-0.1
G1 Y0.25
M03 S63.75
G1 Y4.597
M05 
G1 Y0.25
G1 X-0.1Y-0.134
G1 Y-0.25
M03 S63.75
G1 Y-4.463
M05 
G1 Y-0.25
G1 X-0.1Y3.1 F6000
G1 Y0.25 F600
M03 S63.75
G1 Y1.23
M05 
G1 Y0.25
G1 X-0.1Y-0.107
G1 Y-0.25
M03 S63.75
G1 Y-1.193
M05 
G1 Y-0.25
G1 X-0.1Y-0.069
G1 Y0.25
M03 S63.75
G1 Y1.168
M05 
G1 Y0.25
G1 X-0.1Y-0.094
G1 Y-0.25
M03 S63.75
G1 Y-1.136
M05 
G1 Y-0.25
G1 X-0.1Y-0.056
G1 Y0.25
M03 S63.75
G1 Y1.121
M05 
G1 Y0.25
G1 X-0.1Y-0.066
G1 Y-0.25
M03 S63.75
G1 Y-1.111
M05 
G1 Y-0.25
G1 X-0.1Y-0.055
G1 Y0.25
M03 S63.75
G1 Y1.1
M05 
G1 Y0.25
G1 X-0.1Y-0.052
G1 Y-0.25
M03 S63.75
G1 Y-1.091
M05 
G1 Y-0.25
G1 X-0.1Y-0.044
G1 Y0.25
M03 S63.75
G1 Y1.092
M05 
G1 Y0.25
G1 X-0.1Y-0.044
G1 Y-0.25
M03 S63.75
G1 Y-1.092
M05 
G1 Y-0.25
G1 X-0.1Y-0.037
G1 Y0.25
M03 S63.75
G1 Y1.086
M05 
G1 Y0.25
G1 X-0.1Y-0.036
G1 Y-0.25
M03 S63.75
G1 Y-1.083
M05 
G1 Y-0.25
G1 X-0.1Y-0.033
G1 Y0.25
M03 S63.75
G1 Y1.08
M05 
G1 Y0.25
G1 X-0.1Y-0.036
G1 Y-0.25
M03 S63.75
G1 Y-1.076
M05 
G1 Y-0.25
G90
; Cut @ 10 mm/sec, 50% power
M9
M05 
G0 X27.234 Y8.097 F6000
; Layer C01
M03 S127.5
G1 X27.603 Y8.217 F600
G1 X27.957 Y8.373
G1 X28.295 Y8.562
G1 X28.614 Y8.783
G1  Y5.634
G1 X29.941
G1  Y10.439
G1 X28.855
G1 X28.741 Y10.226
G1 X28.507 Y9.917
G1 X28.227 Y9.654
G1 X27.906 Y9.442
G1 X27.551 Y9.286
G1 X27.234 Y9.173
G1  Y8.097
M05 
G0 X32.666 Y8.202 F6000
M03 S127.5
G1 X32.704 Y8.675 F600
G1 X32.781 Y9.144
G1 X32.829 Y9.276
G1 X32.907 Y9.39
G1 X33.01 Y9.481
G1 X33.134 Y9.545
G1 X33.327 Y9.566
G1 X33.508 Y9.516
G1 X33.66 Y9.405
G1 X33.764 Y9.242
G1 X33.85 Y8.933
G1 X33.905 Y8.617
G1 X33.93 Y8.298
G1  Y7.977
G1  Y7.703
G1 X33.913 Y7.43
G1 X33.875 Y7.159
G1 X33.815 Y6.892
G1 X33.783 Y6.786
G1 X33.731 Y6.69
G1 X33.66 Y6.606
G1 X33.573 Y6.538
G1 X33.474 Y6.488
G1 X33.369 Y6.46
G1 X33.259
G1 X33.15 Y6.47
G1 X33.025 Y6.532
G1 X32.894 Y6.687
G1 X32.796 Y6.862
G1 X32.734 Y7.052
G1 X32.71 Y7.253
G1 X32.668 Y7.727
G1  Y8.202
M05 
G0 X31.386 Y8.523 F6000
M03 S127.5
G1 X31.366 Y7.88 F600
G1 X31.43 Y7.24
G1 X31.577 Y6.611
G1 X31.675 Y6.392
G1 X31.803 Y6.193
G1 X31.957 Y6.018
G1 X32.134 Y5.868
G1 X32.331 Y5.745
G1 X32.545 Y5.652
G1 X32.773 Y5.592
G1 X33.012 Y5.566
G1 X33.281 Y5.554
G1 X33.551
G1 X33.86 Y5.596
G1 X34.154 Y5.684
G1 X34.429 Y5.823
G1 X34.675 Y6.01
G1 X34.864 Y6.268
G1 X35.01 Y6.55
G1 X35.112 Y6.85
G1 X35.168 Y7.165
G1 X35.228 Y7.726
G1  Y8.288
G1 X35.153 Y8.846
G1 X35.018 Y9.394
G1 X34.92 Y9.616
G1 X34.79 Y9.817
G1 X34.633 Y9.993
G1 X34.453 Y10.144
G1 X34.251 Y10.265
G1 X34.033 Y10.355
G1 X33.801 Y10.412
G1 X33.559 Y10.432
G1 X33.186 Y10.447
G1 X32.819 Y10.402
G1 X32.464 Y10.298
G1 X32.128 Y10.137
G1 X31.898 Y9.944
G1 X31.712 Y9.712
G1 X31.574 Y9.448
G1 X31.489 Y9.161
G1 X31.386 Y8.523
M05 
G0 X36.682 Y10.439 F6000
M03 S127.5
G1 X35.502 Y5.557 F600
G1 X36.166
G1 X37.352 Y10.439
G1 X36.682
; Scan @ 10 mm/sec, 50% power
M9
M05 
G0 X28.364 Y5.65 F6000
; Layer C01
G91
G1 X0.25 F600
M03 S127.5
G1 X1.327
M05 
G1 X2.612 F6000
M03 S127.5
G1 X1.489 F600
M05 
G1 X1.483 F6000
M03 S127.5
G1 X0.664 F600
M05 
G1 X0.25
G1 X0.024Y0.1
G1 X-0.25
M03 S127.5
G1 X-0.664
M05 
G1 X-1.263 F6000
M03 S127.5
G1 X-1.963 F600
M05 
G1 X-2.382 F6000
M03 S127.5
G1 X-1.327 F600
M05 
G1 X-0.25
G1 Y0.1
G1 X0.25
M03 S127.5
G1 X1.327
M05 
G1 X2.221 F6000
M03 S127.5
G1 X2.303 F600
M05 
G1 X1.108 F6000
M03 S127.5
G1 X0.664 F600
M05 
G1 X0.25
G1 X0.024Y0.1
G1 X-0.25
M03 S127.5
G1 X-0.664
M05 
G1 X-1
M03 S127.5
G1 X-2.561
M05 
G1 X-2.095 F6000
M03 S127.5
G1 X-1.327 F600
M05 
G1 X-0.25
G1 Y0.1
G1 X0.25
M03 S127.5
G1 X1.327
M05 
G1 X1.987 F6000
M03 S127.5
G1 X2.777 F600
M05 
G1 X0.916
M03 S127.5
G1 X0.665
M05 
G1 X0.25
G1 X0.024Y0.1
G1 X-0.25
M03 S127.5
G1 X-0.665
M05 
G1 X-0.867
M03 S127.5
G1 X-2.938
M05 
G1 X-1.899 F6000
M03 S127.5
G1 X-1.327 F600
M05 
G1 X-0.25
G1 Y0.1
G1 X0.25
M03 S127.5
G1 X1.327
M05 
G1 X1.825 F6000
M03 S127.5
G1 X3.085 F600
M05 
G1 X0.819
M03 S127.5
G1 X0.664
M05 
G1 X0.25
G1 X0.025Y0.1
G1 X-0.25
M03 S127.5
G1 X-0.665
M05 
G1 X-0.788
M03 S127.5
G1 X-3.204
M05 
G1 X-1.761 F6000
M03 S127.5
G1 X-1.327 F600
M05 
G1 X-0.25
G1 Y0.1
G1 X0.25
M03 S127.5
G1 X1.327
M05 
G1 X1.708 F6000
M03 S127.5
G1 X3.309 F600
M05 
G1 X0.76
M03 S127.5
G1 X0.665
M05 
G1 X0.25
G1 X0.024Y0.1
G1 X-0.25
M03 S127.5
G1 X-0.665
M05 
G1 X-0.732
M03 S127.5
G1 X-1.42
M05 
G1 X-0.58
M03 S127.5
G1 X-1.406
M05 
G1 X-1.663 F6000
M03 S127.5
G1 X-1.327 F600
M05 
G1 X-0.25
G1 Y0.1
G1 X0.25
M03 S127.5
G1 X1.327
M05 
G1 X1.627 F6000
M03 S127.5
G1 X1.357 F600
M05 
G1 X0.772
M03 S127.5
G1 X1.347
M05 
G1 X0.722
M03 S127.5
G1 X0.666
M05 
G1 X0.25
G1 X0.024Y0.1
G1 X-0.25
M03 S127.5
G1 X-0.666
M05 
G1 X-0.712
M03 S127.5
G1 X-1.314
M05 
G1 X-0.905
M03 S127.5
G1 X-1.314
M05 
G1 X-1.604 F6000
M03 S127.5
G1 X-1.327 F600
M05 
G1 X-0.25
G1 Y0.1
G1 X0.25
M03 S127.5
G1 X1.327
M05 
G1 X1.58 F6000
M03 S127.5
G1 X1.282 F600
M05 
G1 X0.999
M03 S127.5
G1 X1.31
M05 
G1 X0.703
M03 S127.5
G1 X0.665
M05 
G1 X0.25
G1 X0.024Y0.1
G1 X-0.25
M03 S127.5
G1 X-0.665
M05 
G1 X-0.709
M03 S127.5
G1 X-1.302
M05 
G1 X-1.06 F6000
M03 S127.5
G1 X-1.27 F600
M05 
G1 X-1.557 F6000
M03 S127.5
G1 X-1.327 F600
M05 
G1 X-0.25
G1 Y0.1
G1 X0.25
M03 S127.5
G1 X1.327
M05 
G1 X1.533 F6000
M03 S127.5
G1 X1.261 F600
M05 
G1 X1.116 F6000
M03 S127.5
G1 X1.297 F600
M05 
G1 X0.715
M03 S127.5
G1 X0.666
M05 
G1 X0.25
G1 X0.024Y0.1
G1 X-0.25
M03 S127.5
G1 X-0.666
M05 
G1 X-0.722
M03 S127.5
G1 X-1.292
M05 
G1 X-1.15 F6000
M03 S127.5
G1 X-1.272 F600
M05 
G1 X-1.51 F6000
M03 S127.5
G1 X-1.327 F600
M05 
G1 X-0.25
G1 Y0.1
G1 X0.25
M03 S127.5
G1 X1.327
M05 
G1 X1.488 F6000
M03 S127.5
G1 X1.281 F600
M05 
G1 X1.178 F6000
M03 S127.5
G1 X1.289 F600
M05 
G1 X0.734
M03 S127.5
G1 X0.666
M05 
G1 X0.25
G1 X0.025Y0.1
G1 X-0.25
M03 S127.5
G1 X-0.667
M05 
G1 X-0.747
M03 S127.5
G1 X-1.286
M05 
G1 X-1.2 F6000
M03 S127.5
G1 X-1.283 F600
M05 
G1 X-1.478 F6000
M03 S127.5
G1 X-1.327 F600
M05 
G1 X-0.25
G1 Y0.1
G1 X0.25
M03 S127.5
G1 X1.327
M05 
G1 X1.468 F6000
M03 S127.5
G1 X1.284 F600
M05 
G1 X1.222 F6000
M03 S127.5
G1 X1.284 F600
M05 
G1 X0.76
M03 S127.5
G1 X0.667
M05 
G1 X0.25
G1 X0.024Y0.1
G1 X-0.25
M03 S127.5
G1 X-0.666
M05 
G1 X-0.775
M03 S127.5
G1 X-1.288
M05 
G1 X-1.237 F6000
M03 S127.5
G1 X-1.285 F600
M05 
G1 X-1.458 F6000
M03 S127.5
G1 X-1.327 F600
M05 
G1 X-0.25
G1 Y0.1
G1 X0.25
M03 S127.5
G1 X1.327
M05 
G1 X1.448 F6000
M03 S127.5
G1 X1.286 F600
M05 
G1 X1.251 F6000
M03 S127.5
G1 X1.294 F600
M05 
G1 X0.788
M03 S127.5
G1 X0.666
M05 
G1 X0.25
G1 X0.025Y0.1
G1 X-0.25
M03 S127.5
G1 X-0.667
M05 
G1 X-0.804
M03 S127.5
G1 X-1.299
M05 
G1 X-1.261 F6000
M03 S127.5
G1 X-1.289 F600
M05 
G1 X-1.438 F6000
M03 S127.5
G1 X-1.327 F600
M05 
G1 X-0.25
G1 Y0.1
G1 X0.25
M03 S127.5
G1 X1.327
M05 
G1 X1.428 F6000
M03 S127.5
G1 X1.299 F600
M05 
G1 X1.258 F6000
M03 S127.5
G1 X1.301 F600
M05 
G1 X0.829
M03 S127.5
G1 X0.667
M05 
G1 X0.25
G1 X0.024Y0.1
G1 X-0.25
M03 S127.5
G1 X-0.667
M05 
G1 X-0.854
M03 S127.5
G1 X-1.302
M05 
G1 X-1.257 F6000
M03 S127.5
G1 X-1.299 F600
M05 
G1 X-1.427 F6000
M03 S127.5
G1 X-1.327 F600
M05 
G1 X-0.25
G1 Y0.1
G1 X0.25
M03 S127.5
G1 X1.327
M05 
G1 X1.43 F6000
M03 S127.5
G1 X1.296 F600
M05 
G1 X1.258 F6000
M03 S127.5
G1 X1.3 F600
M05 
G1 X0.879
M03 S127.5
G1 X0.668
M05 
G1 X0.25
G1 X0.024Y0.1
G1 X-0.25
M03 S127.5
G1 X-0.667
M05 
G1 X-0.905
M03 S127.5
G1 X-1.297
M05 
G1 X-1.261 F6000
M03 S127.5
G1 X-1.292 F600
M05 
G1 X-1.433 F6000
M03 S127.5
G1 X-1.327 F600
M05 
G1 X-1.216 F6000
M03 S127.5
G1 X-0.164 F600
M05 
G1 X-0.25
G1 Y0.1
G1 X0.25
M03 S127.5
G1 X0.444
M05 
G1 X0.936
M03 S127.5
G1 X1.327
M05 
G1 X1.436 F6000
M03 S127.5
G1 X1.293 F600
M05 
G1 X1.259 F6000
M03 S127.5
G1 X1.294 F600
M05 
G1 X0.93
M03 S127.5
G1 X0.667
M05 
G1 X0.25
G1 X0.024Y0.1
G1 X-0.25
M03 S127.5
G1 X-0.667
M05 
G1 X-0.962
M03 S127.5
G1 X-1.289
M05 
G1 X-1.248 F6000
M03 S127.5
G1 X-1.298 F600
M05 
G1 X-1.439 F6000
M03 S127.5
G1 X-1.327 F600
M05 
G1 X-0.708
M03 S127.5
G1 X-0.672
M05 
G1 X-0.25
G1 Y0.1
G1 X0.25
M03 S127.5
G1 X0.862
M05 
G1 X0.518
M03 S127.5
G1 X1.327
M05 
G1 X1.442 F6000
M03 S127.5
G1 X1.303 F600
M05 
G1 X1.232 F6000
M03 S127.5
G1 X1.285 F600
M05 
G1 X0.998
M03 S127.5
G1 X0.668
M05 
G1 X0.25
G1 X0.024Y0.1
G1 X-0.25
M03 S127.5
G1 X-0.668
M05 
G1 X-1.035 F6000
M03 S127.5
G1 X-1.279 F600
M05 
G1 X-1.217 F6000
M03 S127.5
G1 X-1.304 F600
M05 
G1 X-1.449 F6000
M03 S127.5
G1 X-1.327 F600
M05 
G1 X-0.339
M03 S127.5
G1 X-1.041
M05 
G1 X-0.25
G1 Y0.1
G1 X0.25
M03 S127.5
G1 X1.189
M05 
G1 X0.191
M03 S127.5
G1 X1.327
M05 
G1 X1.465 F6000
M03 S127.5
G1 X1.296 F600
M05 
G1 X1.198 F6000
M03 S127.5
G1 X1.278 F600
M05 
G1 X1.071 F6000
M03 S127.5
G1 X0.668 F600
M05 
G1 X0.25
G1 X0.025Y0.1
G1 X-0.25
M03 S127.5
G1 X-0.668
M05 
G1 X-1.109 F6000
M03 S127.5
G1 X-1.283 F600
M05 
G1 X-1.166 F6000
M03 S127.5
G1 X-1.293 F600
M05 
G1 X-1.482 F6000
M03 S127.5
G1 X-1.327 F600
M05 
G1 X-0.047
M03 S127.5
G1 X-1.333
M05 
G1 X-0.25
G1 Y0.1
G1 X0.25
M03 S127.5
G1 X2.707
M05 
G1 X1.498 F6000
M03 S127.5
G1 X1.294 F600
M05 
G1 X1.132 F6000
M03 S127.5
G1 X1.287 F600
M05 
G1 X1.146 F6000
M03 S127.5
G1 X0.668 F600
M05 
G1 X0.25
G1 X0.024Y0.1
G1 X-0.25
M03 S127.5
G1 X-0.668
M05 
G1 X-1.195 F6000
M03 S127.5
G1 X-1.282 F600
M05 
G1 X-1.096 F6000
M03 S127.5
G1 X-1.294 F600
M05 
G1 X-1.514 F6000
M03 S127.5
G1 X-2.707 F600
M05 
G1 X-0.25
G1 Y0.1
G1 X0.25
M03 S127.5
G1 X2.707
M05 
G1 X1.53 F6000
M03 S127.5
G1 X1.295 F600
M05 
G1 X1.051 F6000
M03 S127.5
G1 X1.286 F600
M05 
G1 X1.243 F6000
M03 S127.5
G1 X0.669 F600
M05 
G1 X0.25
G1 X0.024Y0.1
G1 X-0.25
M03 S127.5
G1 X-0.669
M05 
G1 X-1.292 F6000
M03 S127.5
G1 X-1.288 F600
M05 
G1 X-1.007 F6000
M03 S127.5
G1 X-1.295 F600
M05 
G1 X-1.547 F6000
M03 S127.5
G1 X-2.707 F600
M05 
G1 X-0.25
G1 X0.216Y0.1
G1 X0.25
M03 S127.5
G1 X2.491
M05 
G1 X1.575 F6000
M03 S127.5
G1 X1.304 F600
M05 
G1 X0.939
M03 S127.5
G1 X1.295
M05 
G1 X1.34 F6000
M03 S127.5
G1 X0.669 F600
M05 
G1 X0.25
G1 X0.024Y0.1
G1 X-0.25
M03 S127.5
G1 X-0.669
M05 
G1 X-1.389 F6000
M03 S127.5
G1 X-1.334 F600
M05 
G1 X-0.815
M03 S127.5
G1 X-1.335
M05 
G1 X-1.604 F6000
M03 S127.5
G1 X-2.244 F600
M05 
G1 X-0.25
G1 X0.222Y0.1
G1 X0.25
M03 S127.5
G1 X2.022
M05 
G1 X1.634 F6000
M03 S127.5
G1 X1.4 F600
M05 
G1 X0.623
M03 S127.5
G1 X1.395
M05 
G1 X1.45 F6000
M03 S127.5
G1 X0.669 F600
M05 
G1 X0.25
G1 X0.024Y0.1
G1 X-0.25
M03 S127.5
G1 X-0.669
M05 
G1 X-1.518 F6000
M03 S127.5
G1 X-1.566 F600
M05 
G1 X-0.201
M03 S127.5
G1 X-1.554
M05 
G1 X-1.687 F6000
M03 S127.5
G1 X-1.871 F600
M05 
G1 X-0.25
G1 X0.152Y0.1
G1 X0.25
M03 S127.5
G1 X1.719
M05 
G1 X1.739 F6000
M03 S127.5
G1 X3.217 F600
M05 
G1 X1.594 F6000
M03 S127.5
G1 X0.669 F600
M05 
G1 X0.25
G1 X0.025Y0.1
G1 X-0.25
M03 S127.5
G1 X-0.67
M05 
G1 X-1.682 F6000
M03 S127.5
G1 X-3.09 F600
M05 
G1 X-1.802 F6000
M03 S127.5
G1 X-1.611 F600
M05 
G1 X-0.25
G1 X0.106Y0.1
G1 X0.25
M03 S127.5
G1 X1.505
M05 
G1 X1.882 F6000
M03 S127.5
G1 X2.937 F600
M05 
G1 X1.779 F6000
M03 S127.5
G1 X0.67 F600
M05 
G1 X0.25
G1 X0.024Y0.1
G1 X-0.25
M03 S127.5
G1 X-0.67
M05 
G1 X-1.892 F6000
M03 S127.5
G1 X-2.765 F600
M05 
G1 X-1.965 F6000
M03 S127.5
G1 X-1.408 F600
M05 
G1 X-0.25
G1 X0.075Y0.1
G1 X0.25
M03 S127.5
G1 X1.333
M05 
G1 X2.084 F6000
M03 S127.5
G1 X2.54 F600
M05 
G1 X2.023 F6000
M03 S127.5
G1 X0.669 F600
M05 
G1 X0.25
G1 X0.025Y0.1
G1 X-0.25
M03 S127.5
G1 X-0.67
M05 
G1 X-2.171 F6000
M03 S127.5
G1 X-2.285 F600
M05 
G1 X-2.215 F6000
M03 S127.5
G1 X-1.257 F600
M05 
G1 X-0.25
G1 X0.07Y0.1
G1 X0.25
M03 S127.5
G1 X1.187
M05 
G1 X2.424 F6000
M03 S127.5
G1 X1.911 F600
M05 
G1 X2.36 F6000
M03 S127.5
G1 X0.67 F600
M05 
G1 X0.25
G1 X0.024Y0.1
G1 X-0.25
M03 S127.5
G1 X-0.67
M05 
G1 X-2.615 F6000
M03 S127.5
G1 X-1.401 F600
M05 
G1 X-2.703 F6000
M03 S127.5
G1 X-1.134 F600
M05 
G1 X-0.25
G1 X8.786Y-0.197 F6000
G1 Y0.25 F600
M03 S127.5
G1 Y0.036
M05 
G1 Y0.25
G1 X-0.1
G1 Y-0.25
M03 S127.5
G1 Y-0.448
M05 
G1 Y-0.25
G1 X-0.1Y-0.411
G1 Y0.25
M03 S127.5
G1 Y0.859
M05 
G1 Y0.25
G1 X-0.1
G1 Y-0.25
M03 S127.5
G1 Y-1.271
M05 
G1 Y-0.25
G1 X-0.1Y-0.412
G1 Y0.25
M03 S127.5
G1 Y1.683
M05 
G1 Y0.25
G1 X-0.1
G1 Y-0.25
M03 S127.5
G1 Y-2.094
M05 
G1 Y-0.25
G1 X-0.1Y-0.412
G1 Y0.25
M03 S127.5
G1 Y2.506
M05 
G1 Y0.25
G1 X-0.1Y-0.159
G1 Y-0.25
M03 S127.5
G1 Y-2.759
M05 
G1 Y-0.25
G1 X-0.1Y-0.411
G1 Y0.25
M03 S127.5
G1 Y2.756
M05 
G1 Y0.25
G1 X-0.1Y-0.414
G1 Y-0.25
M03 S127.5
G1 Y-2.754
M05 
G1 Y-0.25
G1 X-0.1Y-0.412
G1 Y0.25
M03 S127.5
G1 Y2.752
M05 
G1 Y0.25
G1 X-0.1Y-0.413
G1 Y-0.25
M03 S127.5
G1 Y-2.75
M05 
G1 Y-0.25
G1 X-0.1Y-0.318
G1 Y0.25
M03 S127.5
G1 Y2.654
M05 
G1 Y0.25
G1 X-0.1Y-0.414
G1 Y-0.25
M03 S127.5
G1 Y-2.24
M05 
G1 Y-0.25
G1 X-0.1
G1 Y0.25
M03 S127.5
G1 Y1.826
M05 
G1 Y0.25
G1 X-0.1Y-0.414
G1 Y-0.25
M03 S127.5
G1 Y-1.412
M05 
G1 Y-0.25
G1 X-0.1
G1 Y0.25
M03 S127.5
G1 Y0.998
M05 
G1 Y0.25
G1 X-0.1Y-0.414
G1 Y-0.25
M03 S127.5
G1 Y-0.584
M05 
G1 Y-0.25
G1 X-0.1
G1 Y0.25
M03 S127.5
G1 Y0.17
M05 
G1 Y0.25
G1 X-0.4Y3.159 F6000
G1 Y-0.25 F600
M03 S127.5
G1 Y-1.861
M05 
G1 Y-0.25
G1 X-0.1Y-0.378
G1 Y0.25
M03 S127.5
G1 Y2.646
M05 
G1 Y0.25
G1 X-0.1Y0.27
G1 Y-0.25
M03 S127.5
G1 Y-3.142
M05 
G1 Y-0.25
G1 X-0.1Y-0.181
G1 Y0.25
M03 S127.5
G1 Y3.495
M05 
G1 Y0.25
G1 X-0.1Y0.135
G1 Y-0.25
M03 S127.5
G1 Y-3.767
M05 
G1 Y-0.25
G1 X-0.1Y-0.117
G1 Y0.25
M03 S127.5
G1 Y3.996
M05 
G1 Y0.25
G1 X-0.1Y0.086
G1 Y-0.25
M03 S127.5
G1 Y-4.158
M05 
G1 Y-0.25
G1 X-0.1Y-0.076
G1 Y0.25
M03 S127.5
G1 Y4.315
M05 
G1 Y0.25
G1 X-0.1Y0.061
G1 Y-0.25
M03 S127.5
G1 Y-4.431
M05 
G1 Y-0.25
G1 X-0.1Y-0.05
G1 Y0.25
M03 S127.5
G1 Y4.539
M05 
G1 Y0.25
G1 X-0.1Y0.042
G1 Y-0.25
M03 S127.5
G1 Y-4.63
M05 
G1 Y-0.25
G1 X-0.1Y-0.029
G1 Y0.25
M03 S127.5
G1 Y4.7
M05 
G1 Y0.25
G1 X-0.1Y0.026
G1 Y-0.25
M03 S127.5
G1 Y-4.756
M05 
G1 Y-0.25
G1 X-0.1Y-0.027
G1 Y0.25
M03 S127.5
G1 Y1.422
M05 
G1 Y1.942 F6000
M03 S127.5
G1 Y1.443 F600
M05 
G1 Y0.25
G1 X-0.1Y0.016
G1 Y-0.25
M03 S127.5
G1 Y-1.142
M05 
G1 Y-2.562 F6000
M03 S127.5
G1 Y-1.129 F600
M05 
G1 Y-0.25
G1 X-0.1Y-0.011
G1 Y0.25
M03 S127.5
G1 Y1.02
M05 
G1 Y2.825 F6000
M03 S127.5
G1 Y1.007 F600
M05 
G1 Y0.25
G1 X-0.1Y0.008
G1 Y-0.25
M03 S127.5
G1 Y-0.942
M05 
G1 Y-2.969 F6000
M03 S127.5
G1 Y-0.959 F600
M05 
G1 Y-0.25
G1 X-0.1
G1 Y0.246
M03 S127.5
G1 Y0.921
M05 
G1 Y3.054 F6000
M03 S127.5
G1 Y0.903 F600
M05 
G1 Y0.25
G1 X-0.1
G1 Y-0.246
M03 S127.5
G1 Y-0.88
M05 
G1 Y-3.102 F6000
M03 S127.5
G1 Y-0.903 F600
M05 
G1 Y-0.25
G1 X-0.1
G1 Y0.25
M03 S127.5
G1 Y0.901
M05 
G1 Y3.1 F6000
M03 S127.5
G1 Y0.888 F600
M05 
G1 Y0.25
G1 X-0.1
G1 Y-0.254
M03 S127.5
G1 Y-0.895
M05 
G1 Y-3.072 F6000
M03 S127.5
G1 Y-0.914 F600
M05 
G1 Y-0.25
G1 X-0.1
G1 Y0.254
M03 S127.5
G1 Y0.959
M05 
G1 Y2.975 F6000
M03 S127.5
G1 Y0.931 F600
M05 
G1 Y0.25
G1 X-0.1Y-0.012
G1 Y-0.25
M03 S127.5
G1 Y-0.995
M05 
G1 Y-2.793 F6000
M03 S127.5
G1 Y-1.056 F600
M05 
G1 Y-0.25
G1 X-0.1Y0.011
G1 Y0.25
M03 S127.5
G1 Y1.194
M05 
G1 Y2.518 F6000
M03 S127.5
G1 Y1.108 F600
M05 
G1 Y0.25
G1 X-0.1Y-0.025
G1 Y-0.25
M03 S127.5
G1 Y-1.465
M05 
G1 Y-1.889 F6000
M03 S127.5
G1 Y-1.425 F600
M05 
G1 Y-0.25
G1 X-0.1Y0.026
G1 Y0.25
M03 S127.5
G1 Y4.724
M05 
G1 Y0.25
G1 X-0.1Y-0.029
G1 Y-0.25
M03 S127.5
G1 Y-4.668
M05 
G1 Y-0.25
G1 X-0.1Y0.044
G1 Y0.25
M03 S127.5
G1 Y4.591
M05 
G1 Y0.25
G1 X-0.1Y-0.048
G1 Y-0.25
M03 S127.5
G1 Y-4.5
M05 
G1 Y-0.25
G1 X-0.1Y0.06
G1 Y0.25
M03 S127.5
G1 Y4.392
M05 
G1 Y0.25
G1 X-0.1Y-0.048
G1 Y-0.25
M03 S127.5
G1 Y-4.282
M05 
G1 Y-0.25
G1 X-0.1Y0.083
G1 Y0.25
M03 S127.5
G1 Y4.121
M05 
G1 Y0.25
G1 X-0.1Y-0.085
G1 Y-0.25
M03 S127.5
G1 Y-3.948
M05 
G1 Y-0.25
G1 X-0.1Y0.114
G1 Y0.25
M03 S127.5
G1 Y3.728
M05 
G1 Y0.25
G1 X-0.1Y-0.125
G1 Y-0.25
M03 S127.5
G1 Y-3.464
M05 
G1 Y-0.25
G1 X-0.1Y0.177
G1 Y0.25
M03 S127.5
G1 Y3.117
M05 
G1 Y0.25
G1 X-0.1Y-0.237
G1 Y-0.25
M03 S127.5
G1 Y-2.587
M05 
G1 Y-0.25
G1 X-0.1Y0.427
G1 Y0.25
M03 S127.5
G1 Y1.693
M05 
G1 Y0.25
G1 X-1.6Y1.563 F6000
G1 Y-0.25 F600
M03 S127.5
G1 Y-4.805
M05 
G1 Y-0.25
G1 X-0.1
G1 Y0.25
M03 S127.5
G1 Y4.805
M05 
G1 Y0.25
G1 X-0.1
G1 Y-0.25
M03 S127.5
G1 Y-4.805
M05 
G1 Y-0.25
G1 X-0.1
G1 Y0.25
M03 S127.5
G1 Y4.805
M05 
G1 Y0.25
G1 X-0.1
G1 Y-0.25
M03 S127.5
G1 Y-4.805
M05 
G1 Y-0.25
G1 X-0.1
G1 Y0.25
M03 S127.5
G1 Y4.805
M05 
G1 Y0.25
G1 X-0.1
G1 Y-0.25
M03 S127.5
G1 Y-4.805
M05 
G1 Y-0.25
G1 X-0.1
G1 Y0.25
M03 S127.5
G1 Y4.805
M05 
G1 Y0.25
G1 X-0.1
G1 Y-0.25
M03 S127.5
G1 Y-4.805
M05 
G1 Y-0.25
G1 X-0.1
G1 Y0.25
M03 S127.5
G1 Y4.805
M05 
G1 Y0.25
G1 X-0.1Y-0.022
G1 Y-0.25
M03 S127.5
G1 Y-4.783
M05 
G1 Y-0.25
G1 X-0.1
G1 Y0.25
M03 S127.5
G1 Y4.597
M05 
G1 Y0.25
G1 X-0.1Y-0.134
G1 Y-0.25
M03 S127.5
G1 Y-4.463
M05 
G1 Y-0.25
G1 X-0.1Y3.1 F6000
G1 Y0.25 F600
M03 S127.5
G1 Y1.23
M05 
G1 Y0.25
G1 X-0.1Y-0.107
G1 Y-0.25
M03 S127.5
G1 Y-1.193
M05 
G1 Y-0.25
G1 X-0.1Y-0.069
G1 Y0.25
M03 S127.5
G1 Y1.168
M05 
G1 Y0.25
G1 X-0.1Y-0.094
G1 Y-0.25
M03 S127.5
G1 Y-1.136
M05 
G1 Y-0.25
G1 X-0.1Y-0.056
G1 Y0.25
M03 S127.5
G1 Y1.121
M05 
G1 Y0.25
G1 X-0.1Y-0.066
G1 Y-0.25
M03 S127.5
G1 Y-1.111
M05 
G1 Y-0.25
G1 X-0.1Y-0.055
G1 Y0.25
M03 S127.5
G1 Y1.1
M05 
G1 Y0.25
G1 X-0.1Y-0.052
G1 Y-0.25
M03 S127.5
G1 Y-1.091
M05 
G1 Y-0.25
G1 X-0.1Y-0.044
G1 Y0.25
M03 S127.5
G1 Y1.092
M05 
G1 Y0.25
G1 X-0.1Y-0.044
G1 Y-0.25
M03 S127.5
G1 Y-1.092
M05 
G1 Y-0.25
G1 X-0.1Y-0.037
G1 Y0.25
M03 S127.5
G1 Y1.086
M05 
G1 Y0.25
G1 X-0.1Y-0.036
G1 Y-0.25
M03 S127.5
G1 Y-1.083
M05 
G1 Y-0.25
G1 X-0.1Y-0.033
G1 Y0.25
M03 S127.5
G1 Y1.08
M05 
G1 Y0.25
G1 X-0.1Y-0.036
G1 Y-0.25
M03 S127.5
G1 Y-1.076
M05 
G1 Y-0.25
G90
; Cut @ 10 mm/sec, 75% power
M9
M05 
G0 X49.734 Y8.097 F6000
; Layer C02
M03 S191.25
G1 X50.103 Y8.217 F600
G1 X50.457 Y8.373
G1 X50.795 Y8.562
G1 X51.114 Y8.783
G1  Y5.634
G1 X52.441
G1  Y10.439
G1 X51.355
G1 X51.241 Y10.226
G1 X51.007 Y9.917
G1 X50.727 Y9.654
G1 X50.406 Y9.442
G1 X50.051 Y9.286
G1 X49.734 Y9.173
G1  Y8.097
M05 
G0 X55.166 Y8.202 F6000
M03 S191.25
G1 X55.204 Y8.675 F600
G1 X55.281 Y9.144
G1 X55.329 Y9.276
G1 X55.407 Y9.39
G1 X55.51 Y9.481
G1 X55.634 Y9.545
G1 X55.827 Y9.566
G1 X56.008 Y9.516
G1 X56.16 Y9.405
G1 X56.264 Y9.242
G1 X56.35 Y8.933
G1 X56.405 Y8.617
G1 X56.43 Y8.298
G1  Y7.977
G1  Y7.703
G1 X56.413 Y7.43
G1 X56.375 Y7.159
G1 X56.315 Y6.892
G1 X56.283 Y6.786
G1 X56.231 Y6.69
G1 X56.16 Y6.606
G1 X56.073 Y6.538
G1 X55.974 Y6.488
G1 X55.869 Y6.46
G1 X55.759
G1 X55.65 Y6.47
G1 X55.525 Y6.532
G1 X55.394 Y6.687
G1 X55.296 Y6.862
G1 X55.234 Y7.052
G1 X55.21 Y7.253
G1 X55.168 Y7.727
G1  Y8.202
M05 
G0 X53.886 Y8.523 F6000
M03 S191.25
G1 X53.866 Y7.88 F600
G1 X53.93 Y7.24
G1 X54.077 Y6.611
G1 X54.175 Y6.392
G1 X54.303 Y6.193
G1 X54.457 Y6.018
G1 X54.634 Y5.868
G1 X54.831 Y5.745
G1 X55.045 Y5.652
G1 X55.273 Y5.592
G1 X55.512 Y5.566
G1 X55.781 Y5.554
G1 X56.051
G1 X56.36 Y5.596
G1 X56.654 Y5.684
G1 X56.929 Y5.823
G1 X57.175 Y6.01
G1 X57.364 Y6.268
G1 X57.51 Y6.55
G1 X57.612 Y6.85
G1 X57.668 Y7.165
G1 X57.728 Y7.726
G1  Y8.288
G1 X57.653 Y8.846
G1 X57.518 Y9.394
G1 X57.42 Y9.616
G1 X57.29 Y9.817
G1 X57.133 Y9.993
G1 X56.952 Y10.144
G1 X56.751 Y10.265
G1 X56.533 Y10.355
G1 X56.301 Y10.412
G1 X56.059 Y10.432
G1 X55.686 Y10.447
G1 X55.319 Y10.402
G1 X54.964 Y10.298
G1 X54.628 Y10.137
G1 X54.398 Y9.944
G1 X54.212 Y9.712
G1 X54.074 Y9.448
G1 X53.989 Y9.161
G1 X53.886 Y8.523
M05 
G0 X59.182 Y10.439 F6000
M03 S191.25
G1 X58.002 Y5.557 F600
G1 X58.666
G1 X59.852 Y10.439
G1 X59.182
; Scan @ 10 mm/sec, 75% power
M9
M05 
G0 X50.864 Y5.65 F6000
; Layer C02
G91
G1 X0.25 F600
M03 S191.25
G1 X1.327
M05 
G1 X2.612 F6000
M03 S191.25
G1 X1.489 F600
M05 
G1 X1.483 F6000
M03 S191.25
G1 X0.664 F600
M05 
G1 X0.25
G1 X0.024Y0.1
G1 X-0.25
M03 S191.25
G1 X-0.664
M05 
G1 X-1.263 F6000
M03 S191.25
G1 X-1.963 F600
M05 
G1 X-2.382 F6000
M03 S191.25
G1 X-1.327 F600
M05 
G1 X-0.25
G1 Y0.1
G1 X0.25
M03 S191.25
G1 X1.327
M05 
G1 X2.221 F6000
M03 S191.25
G1 X2.303 F600
M05 
G1 X1.108 F6000
M03 S191.25
G1 X0.664 F600
M05 
G1 X0.25
G1 X0.024Y0.1
G1 X-0.25
M03 S191.25
G1 X-0.664
M05 
G1 X-1
M03 S191.25
G1 X-2.561
M05 
G1 X-2.095 F6000
M03 S191.25
G1 X-1.327 F600
M05 
G1 X-0.25
G1 Y0.1
G1 X0.25
M03 S191.25
G1 X1.327
M05 
G1 X1.987 F6000
M03 S191.25
G1 X2.777 F600
M05 
G1 X0.916
M03 S191.25
G1 X0.665
M05 
G1 X0.25
G1 X0.024Y0.1
G1 X-0.25
M03 S191.25
G1 X-0.665
M05 
G1 X-0.867
M03 S191.25
G1 X-2.938
M05 
G1 X-1.899 F6000
M03 S191.25
G1 X-1.327 F600
M05 
G1 X-0.25
G1 Y0.1
G1 X0.25
M03 S191.25
G1 X1.327
M05 
G1 X1.825 F6000
M03 S191.25
G1 X3.085 F600
M05 
G1 X0.819
M03 S191.25
G1 X0.664
M05 
G1 X0.25
G1 X0.025Y0.1
G1 X-0.25
M03 S191.25
G1 X-0.665
M05 
G1 X-0.788
M03 S191.25
G1 X-3.204
M05 
G1 X-1.761 F6000
M03 S191.25
G1 X-1.327 F600
M05 
G1 X-0.25
G1 Y0.1
G1 X0.25
M03 S191.25
G1 X1.327
M05 
G1 X1.708 F6000
M03 S191.25
G1 X3.309 F600
M05 
G1 X0.76
M03 S191.25
G1 X0.665
M05 
G1 X0.25
G1 X0.024Y0.1
G1 X-0.25
M03 S191.25
G1 X-0.665
M05 
G1 X-0.732
M03 S191.25
G1 X-1.42
M05 
G1 X-0.58
M03 S191.25
G1 X-1.406
M05 
G1 X-1.663 F6000
M03 S191.25
G1 X-1.327 F600
M05 
G1 X-0.25
G1 Y0.1
G1 X0.25
M03 S191.25
G1 X1.327
M05 
G1 X1.627 F6000
M03 S191.25
G1 X1.357 F600
M05 
G1 X0.772
M03 S191.25
G1 X1.347
M05 
G1 X0.722
M03 S191.25
G1 X0.666
M05 
G1 X0.25
G1 X0.024Y0.1
G1 X-0.25
M03 S191.25
G1 X-0.666
M05 
G1 X-0.712
M03 S191.25
G1 X-1.314
M05 
G1 X-0.905
M03 S191.25
G1 X-1.314
M05 
G1 X-1.604 F6000
M03 S191.25
G1 X-1.327 F600
M05 
G1 X-0.25
G1 Y0.1
G1 X0.25
M03 S191.25
G1 X1.327
M05 
G1 X1.58 F6000
M03 S191.25
G1 X1.282 F600
M05 
G1 X0.999
M03 S191.25
G1 X1.31
M05 
G1 X0.703
M03 S191.25
G1 X0.665
M05 
G1 X0.25
G1 X0.024Y0.1
G1 X-0.25
M03 S191.25
G1 X-0.665
M05 
G1 X-0.709
M03 S191.25
G1 X-1.302
M05 
G1 X-1.06 F6000
M03 S191.25
G1 X-1.27 F600
M05 
G1 X-1.557 F6000
M03 S191.25
G1 X-1.327 F600
M05 
G1 X-0.25
G1 Y0.1
G1 X0.25
M03 S191.25
G1 X1.327
M05 
G1 X1.533 F6000
M03 S191.25
G1 X1.261 F600
M05 
G1 X1.116 F6000
M03 S191.25
G1 X1.297 F600
M05 
G1 X0.715
M03 S191.25
G1 X0.666
M05 
G1 X0.25
G1 X0.024Y0.1
G1 X-0.25
M03 S191.25
G1 X-0.666
M05 
G1 X-0.722
M03 S191.25
G1 X-1.292
M05 
G1 X-1.15 F6000
M03 S191.25
G1 X-1.272 F600
M05 
G1 X-1.51 F6000
M03 S191.25
G1 X-1.327 F600
M05 
G1 X-0.25
G1 Y0.1
G1 X0.25
M03 S191.25
G1 X1.327
M05 
G1 X1.488 F6000
M03 S191.25
G1 X1.281 F600
M05 
G1 X1.178 F6000
M03 S191.25
G1 X1.289 F600
M05 
G1 X0.734
M03 S191.25
G1 X0.666
M05 
G1 X0.25
G1 X0.025Y0.1
G1 X-0.25
M03 S191.25
G1 X-0.667
M05 
G1 X-0.747
M03 S191.25
G1 X-1.286
M05 
G1 X-1.2 F6000
M03 S191.25
G1 X-1.283 F600
M05 
G1 X-1.478 F6000
M03 S191.25
G1 X-1.327 F600
M05 
G1 X-0.25
G1 Y0.1
G1 X0.25
M03 S191.25
G1 X1.327
M05 
G1 X1.468 F6000
M03 S191.25
G1 X1.284 F600
M05 
G1 X1.222 F6000
M03 S191.25
G1 X1.284 F600
M05 
G1 X0.76
M03 S191.25
G1 X0.667
M05 
G1 X0.25
G1 X0.024Y0.1
G1 X-0.25
M03 S191.25
G1 X-0.666
M05 
G1 X-0.775
M03 S191.25
G1 X-1.288
M05 
G1 X-1.237 F6000
M03 S191.25
G1 X-1.285 F600
M05 
G1 X-1.458 F6000
M03 S191.25
G1 X-1.327 F600
M05 
G1 X-0.25
G1 Y0.1
G1 X0.25
M03 S191.25
G1 X1.327
M05 
G1 X1.448 F6000
M03 S191.25
G1 X1.286 F600
M05 
G1 X1.251 F6000
M03 S191.25
G1 X1.294 F600
M05 
G1 X0.788
M03 S191.25
G1 X0.666
M05 
G1 X0.25
G1 X0.025Y0.1
G1 X-0.25
M03 S191.25
G1 X-0.667
M05 
G1 X-0.804
M03 S191.25
G1 X-1.299
M05 
G1 X-1.261 F6000
M03 S191.25
G1 X-1.289 F600
M05 
G1 X-1.438 F6000
M03 S191.25
G1 X-1.327 F600
M05 
G1 X-0.25
G1 Y0.1
G1 X0.25
M03 S191.25
G1 X1.327
M05 
G1 X1.428 F6000
M03 S191.25
G1 X1.299 F600
M05 
G1 X1.258 F6000
M03 S191.25
G1 X1.301 F600
M05 
G1 X0.829
M03 S191.25
G1 X0.667
M05 
G1 X0.25
G1 X0.024Y0.1
G1 X-0.25
M03 S191.25
G1 X-0.667
M05 
G1 X-0.854
M03 S191.25
G1 X-1.302
M05 
G1 X-1.257 F6000
M03 S191.25
G1 X-1.299 F600
M05 
G1 X-1.427 F6000
M03 S191.25
G1 X-1.327 F600
M05 
G1 X-0.25
G1 Y0.1
G1 X0.25
M03 S191.25
G1 X1.327
M05 
G1 X1.43 F6000
M03 S191.25
G1 X1.296 F600
M05 
G1 X1.258 F6000
M03 S191.25
G1 X1.3 F600
M05 
G1 X0.879
M03 S191.25
G1 X0.668
M05 
G1 X0.25
G1 X0.024Y0.1
G1 X-0.25
M03 S191.25
G1 X-0.667
M05 
G1 X-0.905
M03 S191.25
G1 X-1.297
M05 
G1 X-1.261 F6000
M03 S191.25
G1 X-1.292 F600
M05 
G1 X-1.433 F6000
M03 S191.25
G1 X-1.327 F600
M05 
G1 X-1.216 F6000
M03 S191.25
G1 X-0.164 F600
M05 
G1 X-0.25
G1 Y0.1
G1 X0.25
M03 S191.25
G1 X0.444
M05 
G1 X0.936
M03 S191.25
G1 X1.327
M05 
G1 X1.436 F6000
M03 S191.25
G1 X1.293 F600
M05 
G1 X1.259 F6000
M03 S191.25
G1 X1.294 F600
M05 
G1 X0.93
M03 S191.25
G1 X0.667
M05 
G1 X0.25
G1 X0.024Y0.1
G1 X-0.25
M03 S191.25
G1 X-0.667
M05 
G1 X-0.962
M03 S191.25
G1 X-1.289
M05 
G1 X-1.248 F6000
M03 S191.25
G1 X-1.298 F600
M05 
G1 X-1.439 F6000
M03 S191.25
G1 X-1.327 F600
M05 
G1 X-0.708
M03 S191.25
G1 X-0.672
M05 
G1 X-0.25
G1 Y0.1
G1 X0.25
M03 S191.25
G1 X0.862
M05 
G1 X0.518
M03 S191.25
G1 X1.327
M05 
G1 X1.442 F6000
M03 S191.25
G1 X1.303 F600
M05 
G1 X1.232 F6000
M03 S191.25
G1 X1.285 F600
M05 
G1 X0.998
M03 S191.25
G1 X0.668
M05 
G1 X0.25
G1 X0.024Y0.1
G1 X-0.25
M03 S191.25
G1 X-0.668
M05 
G1 X-1.035 F6000
M03 S191.25
G1 X-1.279 F600
M05 
G1 X-1.217 F6000
M03 S191.25
G1 X-1.304 F600
M05 
G1 X-1.449 F6000
M03 S191.25
G1 X-1.327 F600
M05 
G1 X-0.339
M03 S191.25
G1 X-1.041
M05 
G1 X-0.25
G1 Y0.1
G1 X0.25
M03 S191.25
G1 X1.189
M05 
G1 X0.191
M03 S191.25
G1 X1.327
M05 
G1 X1.465 F6000
M03 S191.25
G1 X1.296 F600
M05 
G1 X1.198 F6000
M03 S191.25
G1 X1.278 F600
M05 
G1 X1.071 F6000
M03 S191.25
G1 X0.668 F600
M05 
G1 X0.25
G1 X0.025Y0.1
G1 X-0.25
M03 S191.25
G1 X-0.668
M05 
G1 X-1.109 F6000
M03 S191.25
G1 X-1.283 F600
M05 
G1 X-1.166 F6000
M03 S191.25
G1 X-1.293 F600
M05 
G1 X-1.482 F6000
M03 S191.25
G1 X-1.327 F600
M05 
G1 X-0.047
M03 S191.25
G1 X-1.333
M05 
G1 X-0.25
G1 Y0.1
G1 X0.25
M03 S191.25
G1 X2.707
M05 
G1 X1.498 F6000
M03 S191.25
G1 X1.294 F600
M05 
G1 X1.132 F6000
M03 S191.25
G1 X1.287 F600
M05 
G1 X1.146 F6000
M03 S191.25
G1 X0.668 F600
M05 
G1 X0.25
G1 X0.024Y0.1
G1 X-0.25
M03 S191.25
G1 X-0.668
M05 
G1 X-1.195 F6000
M03 S191.25
G1 X-1.282 F600
M05 
G1 X-1.096 F6000
M03 S191.25
G1 X-1.294 F600
M05 
G1 X-1.514 F6000
M03 S191.25
G1 X-2.707 F600
M05 
G1 X-0.25
G1 Y0.1
G1 X0.25
M03 S191.25
G1 X2.707
M05 
G1 X1.53 F6000
M03 S191.25
G1 X1.295 F600
M05 
G1 X1.051 F6000
M03 S191.25
G1 X1.286 F600
M05 
G1 X1.243 F6000
M03 S191.25
G1 X0.669 F600
M05 
G1 X0.25
G1 X0.024Y0.1
G1 X-0.25
M03 S191.25
G1 X-0.669
M05 
G1 X-1.292 F6000
M03 S191.25
G1 X-1.288 F600
M05 
G1 X-1.007 F6000
M03 S191.25
G1 X-1.295 F600
M05 
G1 X-1.547 F6000
M03 S191.25
G1 X-2.707 F600
M05 
G1 X-0.25
G1 X0.216Y0.1
G1 X0.25
M03 S191.25
G1 X2.491
M05 
G1 X1.575 F6000
M03 S191.25
G1 X1.304 F600
M05 
G1 X0.939
M03 S191.25
G1 X1.295
M05 
G1 X1.34 F6000
M03 S191.25
G1 X0.669 F600
M05 
G1 X0.25
G1 X0.024Y0.1
G1 X-0.25
M03 S191.25
G1 X-0.669
M05 
G1 X-1.389 F6000
M03 S191.25
G1 X-1.334 F600
M05 
G1 X-0.815
M03 S191.25
G1 X-1.335
M05 
G1 X-1.604 F6000
M03 S191.25
G1 X-2.244 F600
M05 
G1 X-0.25
G1 X0.222Y0.1
G1 X0.25
M03 S191.25
G1 X2.022
M05 
G1 X1.634 F6000
M03 S191.25
G1 X1.4 F600
M05 
G1 X0.623
M03 S191.25
G1 X1.395
M05 
G1 X1.45 F6000
M03 S191.25
G1 X0.669 F600
M05 
G1 X0.25
G1 X0.024Y0.1
G1 X-0.25
M03 S191.25
G1 X-0.669
M05 
G1 X-1.518 F6000
M03 S191.25
G1 X-1.566 F600
M05 
G1 X-0.201
M03 S191.25
G1 X-1.554
M05 
G1 X-1.687 F6000
M03 S191.25
G1 X-1.871 F600
M05 
G1 X-0.25
G1 X0.152Y0.1
G1 X0.25
M03 S191.25
G1 X1.719
M05 
G1 X1.739 F6000
M03 S191.25
G1 X3.217 F600
M05 
G1 X1.594 F6000
M03 S191.25
G1 X0.669 F600
M05 
G1 X0.25
G1 X0.025Y0.1
G1 X-0.25
M03 S191.25
G1 X-0.67
M05 
G1 X-1.682 F6000
M03 S191.25
G1 X-3.09 F600
M05 
G1 X-1.802 F6000
M03 S191.25
G1 X-1.611 F600
M05 
G1 X-0.25
G1 X0.106Y0.1
G1 X0.25
M03 S191.25
G1 X1.505
M05 
G1 X1.882 F6000
M03 S191.25
G1 X2.937 F600
M05 
G1 X1.779 F6000
M03 S191.25
G1 X0.67 F600
M05 
G1 X0.25
G1 X0.024Y0.1
G1 X-0.25
M03 S191.25
G1 X-0.67
M05 
G1 X-1.892 F6000
M03 S191.25
G1 X-2.765 F600
M05 
G1 X-1.965 F6000
M03 S191.25
G1 X-1.408 F600
M05 
G1 X-0.25
G1 X0.075Y0.1
G1 X0.25
M03 S191.25
G1 X1.333
M05 
G1 X2.084 F6000
M03 S191.25
G1 X2.54 F600
M05 
G1 X2.023 F6000
M03 S191.25
G1 X0.669 F600
M05 
G1 X0.25
G1 X0.025Y0.1
G1 X-0.25
M03 S191.25
G1 X-0.67
M05 
G1 X-2.171 F6000
M03 S191.25
G1 X-2.285 F600
M05 
G1 X-2.215 F6000
M03 S191.25
G1 X-1.257 F600
M05 
G1 X-0.25
G1 X0.07Y0.1
G1 X0.25
M03 S191.25
G1 X1.187
M05 
G1 X2.424 F6000
M03 S191.25
G1 X1.911 F600
M05 
G1 X2.36 F6000
M03 S191.25
G1 X0.67 F600
M05 
G1 X0.25
G1 X0.024Y0.1
G1 X-0.25
M03 S191.25
G1 X-0.67
M05 
G1 X-2.615 F6000
M03 S191.25
G1 X-1.401 F600
M05 
G1 X-2.703 F6000
M03 S191.25
G1 X-1.134 F600
M05 
G1 X-0.25
G1 X8.786Y-0.197 F6000
G1 Y0.25 F600
M03 S191.25
G1 Y0.036
M05 
G1 Y0.25
G1 X-0.1
G1 Y-0.25
M03 S191.25
G1 Y-0.448
M05 
G1 Y-0.25
G1 X-0.1Y-0.411
G1 Y0.25
M03 S191.25
G1 Y0.859
M05 
G1 Y0.25
G1 X-0.1
G1 Y-0.25
M03 S191.25
G1 Y-1.271
M05 
G1 Y-0.25
G1 X-0.1Y-0.412
G1 Y0.25
M03 S191.25
G1 Y1.683
M05 
G1 Y0.25
G1 X-0.1
G1 Y-0.25
M03 S191.25
G1 Y-2.094
M05 
G1 Y-0.25
G1 X-0.1Y-0.412
G1 Y0.25
M03 S191.25
G1 Y2.506
M05 
G1 Y0.25
G1 X-0.1Y-0.159
G1 Y-0.25
M03 S191.25
G1 Y-2.759
M05 
G1 Y-0.25
G1 X-0.1Y-0.411
G1 Y0.25
M03 S191.25
G1 Y2.756
M05 
G1 Y0.25
G1 X-0.1Y-0.414
G1 Y-0.25
M03 S191.25
G1 Y-2.754
M05 
G1 Y-0.25
G1 X-0.1Y-0.412
G1 Y0.25
M03 S191.25
G1 Y2.752
M05 
G1 Y0.25
G1 X-0.1Y-0.413
G1 Y-0.25
M03 S191.25
G1 Y-2.75
M05 
G1 Y-0.25
G1 X-0.1Y-0.318
G1 Y0.25
M03 S191.25
G1 Y2.654
M05 
G1 Y0.25
G1 X-0.1Y-0.414
G1 Y-0.25
M03 S191.25
G1 Y-2.24
M05 
G1 Y-0.25
G1 X-0.1
G1 Y0.25
M03 S191.25
G1 Y1.826
M05 
G1 Y0.25
G1 X-0.1Y-0.414
G1 Y-0.25
M03 S191.25
G1 Y-1.412
M05 
G1 Y-0.25
G1 X-0.1
G1 Y0.25
M03 S191.25
G1 Y0.998
M05 
G1 Y0.25
G1 X-0.1Y-0.414
G1 Y-0.25
M03 S191.25
G1 Y-0.584
M05 
G1 Y-0.25
G1 X-0.1
G1 Y0.25
M03 S191.25
G1 Y0.17
M05 
G1 Y0.25
G1 X-0.4Y3.159 F6000
G1 Y-0.25 F600
M03 S191.25
G1 Y-1.861
M05 
G1 Y-0.25
G1 X-0.1Y-0.378
G1 Y0.25
M03 S191.25
G1 Y2.646
M05 
G1 Y0.25
G1 X-0.1Y0.27
G1 Y-0.25
M03 S191.25
G1 Y-3.142
M05 
G1 Y-0.25
G1 X-0.1Y-0.181
G1 Y0.25
M03 S191.25
G1 Y3.495
M05 
G1 Y0.25
G1 X-0.1Y0.135
G1 Y-0.25
M03 S191.25
G1 Y-3.767
M05 
G1 Y-0.25
G1 X-0.1Y-0.117
G1 Y0.25
M03 S191.25
G1 Y3.996
M05 
G1 Y0.25
G1 X-0.1Y0.086
G1 Y-0.25
M03 S191.25
G1 Y-4.158
M05 
G1 Y-0.25
G1 X-0.1Y-0.076
G1 Y0.25
M03 S191.25
G1 Y4.315
M05 
G1 Y0.25
G1 X-0.1Y0.061
G1 Y-0.25
M03 S191.25
G1 Y-4.431
M05 
G1 Y-0.25
G1 X-0.1Y-0.05
G1 Y0.25
M03 S191.25
G1 Y4.539
M05 
G1 Y0.25
G1 X-0.1Y0.042
G1 Y-0.25
M03 S191.25
G1 Y-4.63
M05 
G1 Y-0.25
G1 X-0.1Y-0.029
G1 Y0.25
M03 S191.25
G1 Y4.7
M05 
G1 Y0.25
G1 X-0.1Y0.026
G1 Y-0.25
M03 S191.25
G1 Y-4.756
M05 
G1 Y-0.25
G1 X-0.1Y-0.027
G1 Y0.25
M03 S191.25
G1 Y1.422
M05 
G1 Y1.942 F6000
M03 S191.25
G1 Y1.443 F600
M05 
G1 Y0.25
G1 X-0.1Y0.016
G1 Y-0.25
M03 S191.25
G1 Y-1.142
M05 
G1 Y-2.562 F6000
M03 S191.25
G1 Y-1.129 F600
M05 
G1 Y-0.25
G1 X-0.1Y-0.011
G1 Y0.25
M03 S191.25
G1 Y1.02
M05 
G1 Y2.825 F6000
M03 S191.25
G1 Y1.007 F600
M05 
G1 Y0.25
G1 X-0.1Y0.008
G1 Y-0.25
M03 S191.25
G1 Y-0.942
M05 
G1 Y-2.969 F6000
M03 S191.25
G1 Y-0.959 F600
M05 
G1 Y-0.25
G1 X-0.1
G1 Y0.246
M03 S191.25
G1 Y0.921
M05 
G1 Y3.054 F6000
M03 S191.25
G1 Y0.903 F600
M05 
G1 Y0.25
G1 X-0.1
G1 Y-0.246
M03 S191.25
G1 Y-0.88
M05 
G1 Y-3.102 F6000
M03 S191.25
G1 Y-0.903 F600
M05 
G1 Y-0.25
G1 X-0.1
G1 Y0.25
M03 S191.25
G1 Y0.901
M05 
G1 Y3.1 F6000
M03 S191.25
G1 Y0.888 F600
M05 
G1 Y0.25
G1 X-0.1
G1 Y-0.254
M03 S191.25
G1 Y-0.895
M05 
G1 Y-3.072 F6000
M03 S191.25
G1 Y-0.914 F600
M05 
G1 Y-0.25
G1 X-0.1
G1 Y0.254
M03 S191.25
G1 Y0.959
M05 
G1 Y2.975 F6000
M03 S191.25
G1 Y0.931 F600
M05 
G1 Y0.25
G1 X-0.1Y-0.012
G1 Y-0.25
M03 S191.25
G1 Y-0.995
M05 
G1 Y-2.793 F6000
M03 S191.25
G1 Y-1.056 F600
M05 
G1 Y-0.25
G1 X-0.1Y0.011
G1 Y0.25
M03 S191.25
G1 Y1.194
M05 
G1 Y2.518 F6000
M03 S191.25
G1 Y1.108 F600
M05 
G1 Y0.25
G1 X-0.1Y-0.025
G1 Y-0.25
M03 S191.25
G1 Y-1.465
M05 
G1 Y-1.889 F6000
M03 S191.25
G1 Y-1.425 F600
M05 
G1 Y-0.25
G1 X-0.1Y0.026
G1 Y0.25
M03 S191.25
G1 Y4.724
M05 
G1 Y0.25
G1 X-0.1Y-0.029
G1 Y-0.25
M03 S191.25
G1 Y-4.668
M05 
G1 Y-0.25
G1 X-0.1Y0.044
G1 Y0.25
M03 S191.25
G1 Y4.591
M05 
G1 Y0.25
G1 X-0.1Y-0.048
G1 Y-0.25
M03 S191.25
G1 Y-4.5
M05 
G1 Y-0.25
G1 X-0.1Y0.06
G1 Y0.25
M03 S191.25
G1 Y4.392
M05 
G1 Y0.25
G1 X-0.1Y-0.048
G1 Y-0.25
M03 S191.25
G1 Y-4.282
M05 
G1 Y-0.25
G1 X-0.1Y0.083
G1 Y0.25
M03 S191.25
G1 Y4.121
M05 
G1 Y0.25
G1 X-0.1Y-0.085
G1 Y-0.25
M03 S191.25
G1 Y-3.948
M05 
G1 Y-0.25
G1 X-0.1Y0.114
G1 Y0.25
M03 S191.25
G1 Y3.728
M05 
G1 Y0.25
G1 X-0.1Y-0.125
G1 Y-0.25
M03 S191.25
G1 Y-3.464
M05 
G1 Y-0.25
G1 X-0.1Y0.177
G1 Y0.25
M03 S191.25
G1 Y3.117
M05 
G1 Y0.25
G1 X-0.1Y-0.237
G1 Y-0.25
M03 S191.25
G1 Y-2.587
M05 
G1 Y-0.25
G1 X-0.1Y0.427
G1 Y0.25
M03 S191.25
G1 Y1.693
M05 
G1 Y0.25
G1 X-1.6Y1.563 F6000
G1 Y-0.25 F600
M03 S191.25
G1 Y-4.805
M05 
G1 Y-0.25
G1 X-0.1
G1 Y0.25
M03 S191.25
G1 Y4.805
M05 
G1 Y0.25
G1 X-0.1
G1 Y-0.25
M03 S191.25
G1 Y-4.805
M05 
G1 Y-0.25
G1 X-0.1
G1 Y0.25
M03 S191.25
G1 Y4.805
M05 
G1 Y0.25
G1 X-0.1
G1 Y-0.25
M03 S191.25
G1 Y-4.805
M05 
G1 Y-0.25
G1 X-0.1
G1 Y0.25
M03 S191.25
G1 Y4.805
M05 
G1 Y0.25
G1 X-0.1
G1 Y-0.25
M03 S191.25
G1 Y-4.805
M05 
G1 Y-0.25
G1 X-0.1
G1 Y0.25
M03 S191.25
G1 Y4.805
M05 
G1 Y0.25
G1 X-0.1
G1 Y-0.25
M03 S191.25
G1 Y-4.805
M05 
G1 Y-0.25
G1 X-0.1
G1 Y0.25
M03 S191.25
G1 Y4.805
M05 
G1 Y0.25
G1 X-0.1Y-0.022
G1 Y-0.25
M03 S191.25
G1 Y-4.783
M05 
G1 Y-0.25
G1 X-0.1
G1 Y0.25
M03 S191.25
G1 Y4.597
M05 
G1 Y0.25
G1 X-0.1Y-0.134
G1 Y-0.25
M03 S191.25
G1 Y-4.463
M05 
G1 Y-0.25
G1 X-0.1Y3.1 F6000
G1 Y0.25 F600
M03 S191.25
G1 Y1.23
M05 
G1 Y0.25
G1 X-0.1Y-0.107
G1 Y-0.25
M03 S191.25
G1 Y-1.193
M05 
G1 Y-0.25
G1 X-0.1Y-0.069
G1 Y0.25
M03 S191.25
G1 Y1.168
M05 
G1 Y0.25
G1 X-0.1Y-0.094
G1 Y-0.25
M03 S191.25
G1 Y-1.136
M05 
G1 Y-0.25
G1 X-0.1Y-0.056
G1 Y0.25
M03 S191.25
G1 Y1.121
M05 
G1 Y0.25
G1 X-0.1Y-0.066
G1 Y-0.25
M03 S191.25
G1 Y-1.111
M05 
G1 Y-0.25
G1 X-0.1Y-0.055
G1 Y0.25
M03 S191.25
G1 Y1.1
M05 
G1 Y0.25
G1 X-0.1Y-0.052
G1 Y-0.25
M03 S191.25
G1 Y-1.091
M05 
G1 Y-0.25
G1 X-0.1Y-0.044
G1 Y0.25
M03 S191.25
G1 Y1.092
M05 
G1 Y0.25
G1 X-0.1Y-0.044
G1 Y-0.25
M03 S191.25
G1 Y-1.092
M05 
G1 Y-0.25
G1 X-0.1Y-0.037
G1 Y0.25
M03 S191.25
G1 Y1.086
M05 
G1 Y0.25
G1 X-0.1Y-0.036
G1 Y-0.25
M03 S191.25
G1 Y-1.083
M05 
G1 Y-0.25
G1 X-0.1Y-0.033
G1 Y0.25
M03 S191.25
G1 Y1.08
M05 
G1 Y0.25
G1 X-0.1Y-0.036
G1 Y-0.25
M03 S191.25
G1 Y-1.076
M05 
G1 Y-0.25
G90
; Cut @ 10 mm/sec, 100% power
M9
M05 
G0 X72.234 Y8.097 F6000
; Layer C03
M03 S255
G1 X72.603 Y8.217 F600
G1 X72.957 Y8.373
G1 X73.295 Y8.562
G1 X73.614 Y8.783
G1  Y5.634
G1 X74.941
G1  Y10.439
G1 X73.855
G1 X73.741 Y10.226
G1 X73.507 Y9.917
G1 X73.227 Y9.654
G1 X72.906 Y9.442
G1 X72.551 Y9.286
G1 X72.234 Y9.173
G1  Y8.097
M05 
G0 X77.666 Y8.202 F6000
M03 S255
G1 X77.704 Y8.675 F600
G1 X77.781 Y9.144
G1 X77.829 Y9.276
G1 X77.907 Y9.39
G1 X78.01 Y9.481
G1 X78.134 Y9.545
G1 X78.327 Y9.566
G1 X78.508 Y9.516
G1 X78.66 Y9.405
G1 X78.764 Y9.242
G1 X78.85 Y8.933
G1 X78.905 Y8.617
G1 X78.93 Y8.298
G1  Y7.977
G1  Y7.703
G1 X78.913 Y7.43
G1 X78.875 Y7.159
G1 X78.815 Y6.892
G1 X78.783 Y6.786
G1 X78.731 Y6.69
G1 X78.66 Y6.606
G1 X78.573 Y6.538
G1 X78.474 Y6.488
G1 X78.369 Y6.46
G1 X78.259
G1 X78.15 Y6.47
G1 X78.025 Y6.532
G1 X77.894 Y6.687
G1 X77.796 Y6.862
G1 X77.734 Y7.052
G1 X77.71 Y7.253
G1 X77.668 Y7.727
G1  Y8.202
M05 
G0 X76.386 Y8.523 F6000
M03 S255
G1 X76.366 Y7.88 F600
G1 X76.43 Y7.24
G1 X76.577 Y6.611
G1 X76.675 Y6.392
G1 X76.803 Y6.193
G1 X76.957 Y6.018
G1 X77.134 Y5.868
G1 X77.331 Y5.745
G1 X77.545 Y5.652
G1 X77.773 Y5.592
G1 X78.012 Y5.566
G1 X78.281 Y5.554
G1 X78.551
G1 X78.86 Y5.596
G1 X79.154 Y5.684
G1 X79.429 Y5.823
G1 X79.675 Y6.01
G1 X79.864 Y6.268
G1 X80.01 Y6.55
G1 X80.112 Y6.85
G1 X80.168 Y7.165
G1 X80.228 Y7.726
G1  Y8.288
G1 X80.153 Y8.846
G1 X80.018 Y9.394
G1 X79.92 Y9.616
G1 X79.79 Y9.817
G1 X79.633 Y9.993
G1 X79.452 Y10.144
G1 X79.251 Y10.265
G1 X79.033 Y10.355
G1 X78.801 Y10.412
G1 X78.559 Y10.432
G1 X78.186 Y10.447
G1 X77.819 Y10.402
G1 X77.464 Y10.298
G1 X77.128 Y10.137
G1 X76.898 Y9.944
G1 X76.712 Y9.712
G1 X76.574 Y9.448
G1 X76.489 Y9.161
G1 X76.386 Y8.523
M05 
G0 X81.682 Y10.439 F6000
M03 S255
G1 X80.502 Y5.557 F600
G1 X81.166
G1 X82.352 Y10.439
G1 X81.682
; Scan @ 10 mm/sec, 100% power
M9
M05 
G0 X73.364 Y5.65 F6000
; Layer C03
G91
G1 X0.25 F600
M03 S255
G1 X1.327
M05 
G1 X2.612 F6000
M03 S255
G1 X1.489 F600
M05 
G1 X1.483 F6000
M03 S255
G1 X0.664 F600
M05 
G1 X0.25
G1 X0.024Y0.1
G1 X-0.25
M03 S255
G1 X-0.664
M05 
G1 X-1.263 F6000
M03 S255
G1 X-1.963 F600
M05 
G1 X-2.382 F6000
M03 S255
G1 X-1.327 F600
M05 
G1 X-0.25
G1 Y0.1
G1 X0.25
M03 S255
G1 X1.327
M05 
G1 X2.221 F6000
M03 S255
G1 X2.303 F600
M05 
G1 X1.108 F6000
M03 S255
G1 X0.664 F600
M05 
G1 X0.25
G1 X0.024Y0.1
G1 X-0.25
M03 S255
G1 X-0.664
M05 
G1 X-1
M03 S255
G1 X-2.561
M05 
G1 X-2.095 F6000
M03 S255
G1 X-1.327 F600
M05 
G1 X-0.25
G1 Y0.1
G1 X0.25
M03 S255
G1 X1.327
M05 
G1 X1.987 F6000
M03 S255
G1 X2.777 F600
M05 
G1 X0.916
M03 S255
G1 X0.665
M05 
G1 X0.25
G1 X0.024Y0.1
G1 X-0.25
M03 S255
G1 X-0.665
M05 
G1 X-0.867
M03 S255
G1 X-2.938
M05 
G1 X-1.899 F6000
M03 S255
G1 X-1.327 F600
M05 
G1 X-0.25
G1 Y0.1
G1 X0.25
M03 S255
G1 X1.327
M05 
G1 X1.825 F6000
M03 S255
G1 X3.085 F600
M05 
G1 X0.819
M03 S255
G1 X0.664
M05 
G1 X0.25
G1 X0.025Y0.1
G1 X-0.25
M03 S255
G1 X-0.665
M05 
G1 X-0.788
M03 S255
G1 X-3.204
M05 
G1 X-1.761 F6000
M03 S255
G1 X-1.327 F600
M05 
G1 X-0.25
G1 Y0.1
G1 X0.25
M03 S255
G1 X1.327
M05 
G1 X1.708 F6000
M03 S255
G1 X3.309 F600
M05 
G1 X0.76
M03 S255
G1 X0.665
M05 
G1 X0.25
G1 X0.024Y0.1
G1 X-0.25
M03 S255
G1 X-0.665
M05 
G1 X-0.732
M03 S255
G1 X-1.42
M05 
G1 X-0.58
M03 S255
G1 X-1.406
M05 
G1 X-1.663 F6000
M03 S255
G1 X-1.327 F600
M05 
G1 X-0.25
G1 Y0.1
G1 X0.25
M03 S255
G1 X1.327
M05 
G1 X1.627 F6000
M03 S255
G1 X1.357 F600
M05 
G1 X0.773
M03 S255
G1 X1.346
M05 
G1 X0.722
M03 S255
G1 X0.666
M05 
G1 X0.25
G1 X0.024Y0.1
G1 X-0.25
M03 S255
G1 X-0.666
M05 
G1 X-0.712
M03 S255
G1 X-1.314
M05 
G1 X-0.905
M03 S255
G1 X-1.314
M05 
G1 X-1.604 F6000
M03 S255
G1 X-1.327 F600
M05 
G1 X-0.25
G1 Y0.1
G1 X0.25
M03 S255
G1 X1.327
M05 
G1 X1.58 F6000
M03 S255
G1 X1.282 F600
M05 
G1 X0.999
M03 S255
G1 X1.31
M05 
G1 X0.703
M03 S255
G1 X0.665
M05 
G1 X0.25
G1 X0.024Y0.1
G1 X-0.25
M03 S255
G1 X-0.665
M05 
G1 X-0.709
M03 S255
G1 X-1.302
M05 
G1 X-1.06 F6000
M03 S255
G1 X-1.27 F600
M05 
G1 X-1.557 F6000
M03 S255
G1 X-1.327 F600
M05 
G1 X-0.25
G1 Y0.1
G1 X0.25
M03 S255
G1 X1.327
M05 
G1 X1.533 F6000
M03 S255
G1 X1.261 F600
M05 
G1 X1.116 F6000
M03 S255
G1 X1.297 F600
M05 
G1 X0.715
M03 S255
G1 X0.666
M05 
G1 X0.25
G1 X0.024Y0.1
G1 X-0.25
M03 S255
G1 X-0.666
M05 
G1 X-0.722
M03 S255
G1 X-1.292
M05 
G1 X-1.15 F6000
M03 S255
G1 X-1.272 F600
M05 
G1 X-1.51 F6000
M03 S255
G1 X-1.327 F600
M05 
G1 X-0.25
G1 Y0.1
G1 X0.25
M03 S255
G1 X1.327
M05 
G1 X1.488 F6000
M03 S255
G1 X1.281 F600
M05 
G1 X1.178 F6000
M03 S255
G1 X1.289 F600
M05 
G1 X0.734
M03 S255
G1 X0.666
M05 
G1 X0.25
G1 X0.025Y0.1
G1 X-0.25
M03 S255
G1 X-0.667
M05 
G1 X-0.747
M03 S255
G1 X-1.286
M05 
G1 X-1.2 F6000
M03 S255
G1 X-1.283 F600
M05 
G1 X-1.478 F6000
M03 S255
G1 X-1.327 F600
M05 
G1 X-0.25
G1 Y0.1
G1 X0.25
M03 S255
G1 X1.327
M05 
G1 X1.468 F6000
M03 S255
G1 X1.284 F600
M05 
G1 X1.222 F6000
M03 S255
G1 X1.284 F600
M05 
G1 X0.76
M03 S255
G1 X0.667
M05 
G1 X0.25
G1 X0.024Y0.1
G1 X-0.25
M03 S255
G1 X-0.666
M05 
G1 X-0.775
M03 S255
G1 X-1.288
M05 
G1 X-1.237 F6000
M03 S255
G1 X-1.285 F600
M05 
G1 X-1.458 F6000
M03 S255
G1 X-1.327 F600
M05 
G1 X-0.25
G1 Y0.1
G1 X0.25
M03 S255
G1 X1.327
M05 
G1 X1.448 F6000
M03 S255
G1 X1.286 F600
M05 
G1 X1.251 F6000
M03 S255
G1 X1.294 F600
M05 
G1 X0.788
M03 S255
G1 X0.666
M05 
G1 X0.25
G1 X0.025Y0.1
G1 X-0.25
M03 S255
G1 X-0.667
M05 
G1 X-0.804
M03 S255
G1 X-1.299
M05 
G1 X-1.261 F6000
M03 S255
G1 X-1.289 F600
M05 
G1 X-1.438 F6000
M03 S255
G1 X-1.327 F600
M05 
G1 X-0.25
G1 Y0.1
G1 X0.25
M03 S255
G1 X1.327
M05 
G1 X1.428 F6000
M03 S255
G1 X1.299 F600
M05 
G1 X1.258 F6000
M03 S255
G1 X1.301 F600
M05 
G1 X0.829
M03 S255
G1 X0.667
M05 
G1 X0.25
G1 X0.024Y0.1
G1 X-0.25
M03 S255
G1 X-0.667
M05 
G1 X-0.854
M03 S255
G1 X-1.302
M05 
G1 X-1.257 F6000
M03 S255
G1 X-1.299 F600
M05 
G1 X-1.427 F6000
M03 S255
G1 X-1.327 F600
M05 
G1 X-0.25
G1 Y0.1
G1 X0.25
M03 S255
G1 X1.327
M05 
G1 X1.43 F6000
M03 S255
G1 X1.296 F600
M05 
G1 X1.258 F6000
M03 S255
G1 X1.3 F600
M05 
G1 X0.879
M03 S255
G1 X0.668
M05 
G1 X0.25
G1 X0.024Y0.1
G1 X-0.25
M03 S255
G1 X-0.667
M05 
G1 X-0.905
M03 S255
G1 X-1.297
M05 
G1 X-1.261 F6000
M03 S255
G1 X-1.292 F600
M05 
G1 X-1.433 F6000
M03 S255
G1 X-1.327 F600
M05 
G1 X-1.216 F6000
M03 S255
G1 X-0.164 F600
M05 
G1 X-0.25
G1 Y0.1
G1 X0.25
M03 S255
G1 X0.444
M05 
G1 X0.936
M03 S255
G1 X1.327
M05 
G1 X1.436 F6000
M03 S255
G1 X1.293 F600
M05 
G1 X1.259 F6000
M03 S255
G1 X1.294 F600
M05 
G1 X0.93
M03 S255
G1 X0.667
M05 
G1 X0.25
G1 X0.024Y0.1
G1 X-0.25
M03 S255
G1 X-0.667
M05 
G1 X-0.962
M03 S255
G1 X-1.289
M05 
G1 X-1.248 F6000
M03 S255
G1 X-1.298 F600
M05 
G1 X-1.439 F6000
M03 S255
G1 X-1.327 F600
M05 
G1 X-0.708
M03 S255
G1 X-0.672
M05 
G1 X-0.25
G1 Y0.1
G1 X0.25
M03 S255
G1 X0.862
M05 
G1 X0.518
M03 S255
G1 X1.327
M05 
G1 X1.442 F6000
M03 S255
G1 X1.303 F600
M05 
G1 X1.232 F6000
M03 S255
G1 X1.285 F600
M05 
G1 X0.998
M03 S255
G1 X0.668
M05 
G1 X0.25
G1 X0.024Y0.1
G1 X-0.25
M03 S255
G1 X-0.668
M05 
G1 X-1.035 F6000
M03 S255
G1 X-1.279 F600
M05 
G1 X-1.217 F6000
M03 S255
G1 X-1.304 F600
M05 
G1 X-1.449 F6000
M03 S255
G1 X-1.327 F600
M05 
G1 X-0.339
M03 S255
G1 X-1.041
M05 
G1 X-0.25
G1 Y0.1
G1 X0.25
M03 S255
G1 X1.189
M05 
G1 X0.191
M03 S255
G1 X1.327
M05 
G1 X1.465 F6000
M03 S255
G1 X1.296 F600
M05 
G1 X1.198 F6000
M03 S255
G1 X1.278 F600
M05 
G1 X1.071 F6000
M03 S255
G1 X0.668 F600
M05 
G1 X0.25
G1 X0.025Y0.1
G1 X-0.25
M03 S255
G1 X-0.668
M05 
G1 X-1.109 F6000
M03 S255
G1 X-1.283 F600
M05 
G1 X-1.166 F6000
M03 S255
G1 X-1.293 F600
M05 
G1 X-1.482 F6000
M03 S255
G1 X-1.327 F600
M05 
G1 X-0.047
M03 S255
G1 X-1.333
M05 
G1 X-0.25
G1 Y0.1
G1 X0.25
M03 S255
G1 X2.707
M05 
G1 X1.498 F6000
M03 S255
G1 X1.294 F600
M05 
G1 X1.132 F6000
M03 S255
G1 X1.287 F600
M05 
G1 X1.146 F6000
M03 S255
G1 X0.668 F600
M05 
G1 X0.25
G1 X0.024Y0.1
G1 X-0.25
M03 S255
G1 X-0.668
M05 
G1 X-1.195 F6000
M03 S255
G1 X-1.282 F600
M05 
G1 X-1.096 F6000
M03 S255
G1 X-1.294 F600
M05 
G1 X-1.514 F6000
M03 S255
G1 X-2.707 F600
M05 
G1 X-0.25
G1 Y0.1
G1 X0.25
M03 S255
G1 X2.707
M05 
G1 X1.53 F6000
M03 S255
G1 X1.295 F600
M05 
G1 X1.051 F6000
M03 S255
G1 X1.286 F600
M05 
G1 X1.243 F6000
M03 S255
G1 X0.669 F600
M05 
G1 X0.25
G1 X0.024Y0.1
G1 X-0.25
M03 S255
G1 X-0.669
M05 
G1 X-1.292 F6000
M03 S255
G1 X-1.288 F600
M05 
G1 X-1.007 F6000
M03 S255
G1 X-1.295 F600
M05 
G1 X-1.547 F6000
M03 S255
G1 X-2.707 F600
M05 
G1 X-0.25
G1 X0.216Y0.1
G1 X0.25
M03 S255
G1 X2.491
M05 
G1 X1.575 F6000
M03 S255
G1 X1.304 F600
M05 
G1 X0.939
M03 S255
G1 X1.295
M05 
G1 X1.34 F6000
M03 S255
G1 X0.669 F600
M05 
G1 X0.25
G1 X0.024Y0.1
G1 X-0.25
M03 S255
G1 X-0.669
M05 
G1 X-1.389 F6000
M03 S255
G1 X-1.334 F600
M05 
G1 X-0.815
M03 S255
G1 X-1.335
M05 
G1 X-1.604 F6000
M03 S255
G1 X-2.244 F600
M05 
G1 X-0.25
G1 X0.222Y0.1
G1 X0.25
M03 S255
G1 X2.022
M05 
G1 X1.634 F6000
M03 S255
G1 X1.4 F600
M05 
G1 X0.623
M03 S255
G1 X1.395
M05 
G1 X1.45 F6000
M03 S255
G1 X0.669 F600
M05 
G1 X0.25
G1 X0.024Y0.1
G1 X-0.25
M03 S255
G1 X-0.669
M05 
G1 X-1.518 F6000
M03 S255
G1 X-1.566 F600
M05 
G1 X-0.201
M03 S255
G1 X-1.554
M05 
G1 X-1.687 F6000
M03 S255
G1 X-1.871 F600
M05 
G1 X-0.25
G1 X0.152Y0.1
G1 X0.25
M03 S255
G1 X1.719
M05 
G1 X1.739 F6000
M03 S255
G1 X3.217 F600
M05 
G1 X1.594 F6000
M03 S255
G1 X0.669 F600
M05 
G1 X0.25
G1 X0.025Y0.1
G1 X-0.25
M03 S255
G1 X-0.67
M05 
G1 X-1.682 F6000
M03 S255
G1 X-3.09 F600
M05 
G1 X-1.802 F6000
M03 S255
G1 X-1.611 F600
M05 
G1 X-0.25
G1 X0.106Y0.1
G1 X0.25
M03 S255
G1 X1.505
M05 
G1 X1.882 F6000
M03 S255
G1 X2.937 F600
M05 
G1 X1.779 F6000
M03 S255
G1 X0.67 F600
M05 
G1 X0.25
G1 X0.024Y0.1
G1 X-0.25
M03 S255
G1 X-0.67
M05 
G1 X-1.892 F6000
M03 S255
G1 X-2.765 F600
M05 
G1 X-1.965 F6000
M03 S255
G1 X-1.408 F600
M05 
G1 X-0.25
G1 X0.075Y0.1
G1 X0.25
M03 S255
G1 X1.333
M05 
G1 X2.084 F6000
M03 S255
G1 X2.54 F600
M05 
G1 X2.023 F6000
M03 S255
G1 X0.669 F600
M05 
G1 X0.25
G1 X0.025Y0.1
G1 X-0.25
M03 S255
G1 X-0.67
M05 
G1 X-2.171 F6000
M03 S255
G1 X-2.285 F600
M05 
G1 X-2.215 F6000
M03 S255
G1 X-1.257 F600
M05 
G1 X-0.25
G1 X0.07Y0.1
G1 X0.25
M03 S255
G1 X1.187
M05 
G1 X2.424 F6000
M03 S255
G1 X1.911 F600
M05 
G1 X2.36 F6000
M03 S255
G1 X0.67 F600
M05 
G1 X0.25
G1 X0.024Y0.1
G1 X-0.25
M03 S255
G1 X-0.67
M05 
G1 X-2.615 F6000
M03 S255
G1 X-1.401 F600
M05 
G1 X-2.703 F6000
M03 S255
G1 X-1.134 F600
M05 
G1 X-0.25
G1 X8.786Y-0.197 F6000
G1 Y0.25 F600
M03 S255
G1 Y0.036
M05 
G1 Y0.25
G1 X-0.1
G1 Y-0.25
M03 S255
G1 Y-0.448
M05 
G1 Y-0.25
G1 X-0.1Y-0.411
G1 Y0.25
M03 S255
G1 Y0.859
M05 
G1 Y0.25
G1 X-0.1
G1 Y-0.25
M03 S255
G1 Y-1.271
M05 
G1 Y-0.25
G1 X-0.1Y-0.412
G1 Y0.25
M03 S255
G1 Y1.683
M05 
G1 Y0.25
G1 X-0.1
G1 Y-0.25
M03 S255
G1 Y-2.094
M05 
G1 Y-0.25
G1 X-0.1Y-0.412
G1 Y0.25
M03 S255
G1 Y2.506
M05 
G1 Y0.25
G1 X-0.1Y-0.159
G1 Y-0.25
M03 S255
G1 Y-2.759
M05 
G1 Y-0.25
G1 X-0.1Y-0.411
G1 Y0.25
M03 S255
G1 Y2.756
M05 
G1 Y0.25
G1 X-0.1Y-0.414
G1 Y-0.25
M03 S255
G1 Y-2.754
M05 
G1 Y-0.25
G1 X-0.1Y-0.412
G1 Y0.25
M03 S255
G1 Y2.752
M05 
G1 Y0.25
G1 X-0.1Y-0.413
G1 Y-0.25
M03 S255
G1 Y-2.75
M05 
G1 Y-0.25
G1 X-0.1Y-0.318
G1 Y0.25
M03 S255
G1 Y2.654
M05 
G1 Y0.25
G1 X-0.1Y-0.414
G1 Y-0.25
M03 S255
G1 Y-2.24
M05 
G1 Y-0.25
G1 X-0.1
G1 Y0.25
M03 S255
G1 Y1.826
M05 
G1 Y0.25
G1 X-0.1Y-0.414
G1 Y-0.25
M03 S255
G1 Y-1.412
M05 
G1 Y-0.25
G1 X-0.1
G1 Y0.25
M03 S255
G1 Y0.998
M05 
G1 Y0.25
G1 X-0.1Y-0.414
G1 Y-0.25
M03 S255
G1 Y-0.584
M05 
G1 Y-0.25
G1 X-0.1
G1 Y0.25
M03 S255
G1 Y0.17
M05 
G1 Y0.25
G1 X-0.4Y3.159 F6000
G1 Y-0.25 F600
M03 S255
G1 Y-1.861
M05 
G1 Y-0.25
G1 X-0.1Y-0.378
G1 Y0.25
M03 S255
G1 Y2.646
M05 
G1 Y0.25
G1 X-0.1Y0.27
G1 Y-0.25
M03 S255
G1 Y-3.142
M05 
G1 Y-0.25
G1 X-0.1Y-0.181
G1 Y0.25
M03 S255
G1 Y3.495
M05 
G1 Y0.25
G1 X-0.1Y0.135
G1 Y-0.25
M03 S255
G1 Y-3.767
M05 
G1 Y-0.25
G1 X-0.1Y-0.117
G1 Y0.25
M03 S255
G1 Y3.996
M05 
G1 Y0.25
G1 X-0.1Y0.086
G1 Y-0.25
M03 S255
G1 Y-4.158
M05 
G1 Y-0.25
G1 X-0.1Y-0.076
G1 Y0.25
M03 S255
G1 Y4.315
M05 
G1 Y0.25
G1 X-0.1Y0.061
G1 Y-0.25
M03 S255
G1 Y-4.431
M05 
G1 Y-0.25
G1 X-0.1Y-0.05
G1 Y0.25
M03 S255
G1 Y4.539
M05 
G1 Y0.25
G1 X-0.1Y0.042
G1 Y-0.25
M03 S255
G1 Y-4.63
M05 
G1 Y-0.25
G1 X-0.1Y-0.029
G1 Y0.25
M03 S255
G1 Y4.7
M05 
G1 Y0.25
G1 X-0.1Y0.026
G1 Y-0.25
M03 S255
G1 Y-4.756
M05 
G1 Y-0.25
G1 X-0.1Y-0.027
G1 Y0.25
M03 S255
G1 Y1.422
M05 
G1 Y1.942 F6000
M03 S255
G1 Y1.443 F600
M05 
G1 Y0.25
G1 X-0.1Y0.016
G1 Y-0.25
M03 S255
G1 Y-1.142
M05 
G1 Y-2.562 F6000
M03 S255
G1 Y-1.129 F600
M05 
G1 Y-0.25
G1 X-0.1Y-0.011
G1 Y0.25
M03 S255
G1 Y1.02
M05 
G1 Y2.825 F6000
M03 S255
G1 Y1.007 F600
M05 
G1 Y0.25
G1 X-0.1Y0.008
G1 Y-0.25
M03 S255
G1 Y-0.942
M05 
G1 Y-2.969 F6000
M03 S255
G1 Y-0.959 F600
M05 
G1 Y-0.25
G1 X-0.1
G1 Y0.246
M03 S255
G1 Y0.921
M05 
G1 Y3.054 F6000
M03 S255
G1 Y0.903 F600
M05 
G1 Y0.25
G1 X-0.1
G1 Y-0.246
M03 S255
G1 Y-0.88
M05 
G1 Y-3.102 F6000
M03 S255
G1 Y-0.903 F600
M05 
G1 Y-0.25
G1 X-0.1
G1 Y0.25
M03 S255
G1 Y0.901
M05 
G1 Y3.1 F6000
M03 S255
G1 Y0.888 F600
M05 
G1 Y0.25
G1 X-0.1
G1 Y-0.254
M03 S255
G1 Y-0.895
M05 
G1 Y-3.072 F6000
M03 S255
G1 Y-0.914 F600
M05 
G1 Y-0.25
G1 X-0.1
G1 Y0.254
M03 S255
G1 Y0.959
M05 
G1 Y2.975 F6000
M03 S255
G1 Y0.931 F600
M05 
G1 Y0.25
G1 X-0.1Y-0.012
G1 Y-0.25
M03 S255
G1 Y-0.995
M05 
G1 Y-2.793 F6000
M03 S255
G1 Y-1.056 F600
M05 
G1 Y-0.25
G1 X-0.1Y0.011
G1 Y0.25
M03 S255
G1 Y1.194
M05 
G1 Y2.518 F6000
M03 S255
G1 Y1.108 F600
M05 
G1 Y0.25
G1 X-0.1Y-0.025
G1 Y-0.25
M03 S255
G1 Y-1.465
M05 
G1 Y-1.889 F6000
M03 S255
G1 Y-1.425 F600
M05 
G1 Y-0.25
G1 X-0.1Y0.026
G1 Y0.25
M03 S255
G1 Y4.724
M05 
G1 Y0.25
G1 X-0.1Y-0.029
G1 Y-0.25
M03 S255
G1 Y-4.668
M05 
G1 Y-0.25
G1 X-0.1Y0.044
G1 Y0.25
M03 S255
G1 Y4.591
M05 
G1 Y0.25
G1 X-0.1Y-0.048
G1 Y-0.25
M03 S255
G1 Y-4.5
M05 
G1 Y-0.25
G1 X-0.1Y0.06
G1 Y0.25
M03 S255
G1 Y4.392
M05 
G1 Y0.25
G1 X-0.1Y-0.048
G1 Y-0.25
M03 S255
G1 Y-4.282
M05 
G1 Y-0.25
G1 X-0.1Y0.083
G1 Y0.25
M03 S255
G1 Y4.121
M05 
G1 Y0.25
G1 X-0.1Y-0.085
G1 Y-0.25
M03 S255
G1 Y-3.948
M05 
G1 Y-0.25
G1 X-0.1Y0.114
G1 Y0.25
M03 S255
G1 Y3.728
M05 
G1 Y0.25
G1 X-0.1Y-0.125
G1 Y-0.25
M03 S255
G1 Y-3.464
M05 
G1 Y-0.25
G1 X-0.1Y0.177
G1 Y0.25
M03 S255
G1 Y3.117
M05 
G1 Y0.25
G1 X-0.1Y-0.237
G1 Y-0.25
M03 S255
G1 Y-2.587
M05 
G1 Y-0.25
G1 X-0.1Y0.427
G1 Y0.25
M03 S255
G1 Y1.693
M05 
G1 Y0.25
G1 X-1.6Y1.563 F6000
G1 Y-0.25 F600
M03 S255
G1 Y-4.805
M05 
G1 Y-0.25
G1 X-0.1
G1 Y0.25
M03 S255
G1 Y4.805
M05 
G1 Y0.25
G1 X-0.1
G1 Y-0.25
M03 S255
G1 Y-4.805
M05 
G1 Y-0.25
G1 X-0.1
G1 Y0.25
M03 S255
G1 Y4.805
M05 
G1 Y0.25
G1 X-0.1
G1 Y-0.25
M03 S255
G1 Y-4.805
M05 
G1 Y-0.25
G1 X-0.1
G1 Y0.25
M03 S255
G1 Y4.805
M05 
G1 Y0.25
G1 X-0.1
G1 Y-0.25
M03 S255
G1 Y-4.805
M05 
G1 Y-0.25
G1 X-0.1
G1 Y0.25
M03 S255
G1 Y4.805
M05 
G1 Y0.25
G1 X-0.1
G1 Y-0.25
M03 S255
G1 Y-4.805
M05 
G1 Y-0.25
G1 X-0.1
G1 Y0.25
M03 S255
G1 Y4.805
M05 
G1 Y0.25
G1 X-0.1Y-0.022
G1 Y-0.25
M03 S255
G1 Y-4.783
M05 
G1 Y-0.25
G1 X-0.1
G1 Y0.25
M03 S255
G1 Y4.597
M05 
G1 Y0.25
G1 X-0.1Y-0.134
G1 Y-0.25
M03 S255
G1 Y-4.463
M05 
G1 Y-0.25
G1 X-0.1Y3.1 F6000
G1 Y0.25 F600
M03 S255
G1 Y1.23
M05 
G1 Y0.25
G1 X-0.1Y-0.107
G1 Y-0.25
M03 S255
G1 Y-1.193
M05 
G1 Y-0.25
G1 X-0.1Y-0.069
G1 Y0.25
M03 S255
G1 Y1.168
M05 
G1 Y0.25
G1 X-0.1Y-0.094
G1 Y-0.25
M03 S255
G1 Y-1.136
M05 
G1 Y-0.25
G1 X-0.1Y-0.056
G1 Y0.25
M03 S255
G1 Y1.121
M05 
G1 Y0.25
G1 X-0.1Y-0.066
G1 Y-0.25
M03 S255
G1 Y-1.111
M05 
G1 Y-0.25
G1 X-0.1Y-0.055
G1 Y0.25
M03 S255
G1 Y1.1
M05 
G1 Y0.25
G1 X-0.1Y-0.052
G1 Y-0.25
M03 S255
G1 Y-1.091
M05 
G1 Y-0.25
G1 X-0.1Y-0.044
G1 Y0.25
M03 S255
G1 Y1.092
M05 
G1 Y0.25
G1 X-0.1Y-0.044
G1 Y-0.25
M03 S255
G1 Y-1.092
M05 
G1 Y-0.25
G1 X-0.1Y-0.037
G1 Y0.25
M03 S255
G1 Y1.086
M05 
G1 Y0.25
G1 X-0.1Y-0.036
G1 Y-0.25
M03 S255
G1 Y-1.083
M05 
G1 Y-0.25
G1 X-0.1Y-0.033
G1 Y0.25
M03 S255
G1 Y1.08
M05 
G1 Y0.25
G1 X-0.1Y-0.036
G1 Y-0.25
M03 S255
G1 Y-1.076
M05 
G1 Y-0.25
G90
; Cut @ 25 mm/sec, 25% power
M9
M05 
G0 X13.666 Y18.557 F6000
; Layer C04
M03 S63.75
G1 X14.852 Y23.439 F1500
G1 X14.182
G1 X13.002 Y18.557
G1 X13.666
M05 
G0 X12.389 Y19.222 F6000
M03 S63.75
G1 X12.531 Y19.442 F1500
G1 X12.636 Y19.676
G1 X12.705 Y19.92
G1 X12.737 Y20.171
G1  Y20.424
G1 X12.69 Y20.675
G1 X12.611 Y20.919
G1 X12.494 Y21.152
G1 X12.328 Y21.343
G1 X12.138 Y21.504
G1 X11.929 Y21.634
G1 X11.704 Y21.73
G1 X11.467 Y21.792
G1 X11.223 Y21.818
G1 X10.974 Y21.807
G1 X10.726 Y21.757
G1 X10.505 Y21.691
G1 X10.293 Y21.602
G1 X10.405 Y22.311
G1 X12.516
G1  Y23.359
G1 X9.4
G1 X8.984 Y20.82
G1 X10.102 Y20.658
G1 X10.254 Y20.808
G1 X10.366 Y20.892
G1 X10.488 Y20.951
G1 X10.616 Y20.987
G1 X10.749 Y20.998
G1 X10.881 Y20.984
G1 X11.009 Y20.947
G1 X11.13 Y20.886
G1 X11.24 Y20.8
G1 X11.379 Y20.501
G1 X11.426 Y20.181
G1 X11.38 Y19.861
G1 X11.242 Y19.561
G1 X11.072 Y19.425
G1 X10.872 Y19.359
G1 X10.661
G1 X10.46 Y19.446
G1 X10.335 Y19.557
G1 X10.239 Y19.69
G1 X10.173 Y19.841
G1 X10.141 Y20.004
G1 X8.813 Y19.859
G1 X8.899 Y19.596
G1 X9.024 Y19.356
G1 X9.184 Y19.141
G1 X9.375 Y18.956
G1 X9.593 Y18.804
G1 X9.834 Y18.687
G1 X10.094 Y18.61
G1 X10.368 Y18.576
G1 X10.74 Y18.554
G1 X11.113 Y18.568
G1 X11.481 Y18.622
G1 X11.824 Y18.753
G1 X12.131 Y18.955
G1 X12.389 Y19.222
M05 
G0 X8.308 Y19.704 F6000
M03 S63.75
G1 X6.259 F1500
G1 X6.427 Y19.865
G1 X6.911 Y20.246
G1 X7.411 Y20.605
G1 X7.667 Y20.826
G1 X7.917 Y21.08
G1 X8.105 Y21.379
G1 X8.227 Y21.71
G1 X8.276 Y22.063
G1 X8.257 Y22.291
G1 X8.199 Y22.508
G1 X8.108 Y22.709
G1 X7.985 Y22.891
G1 X7.833 Y23.05
G1 X7.656 Y23.182
G1 X7.456 Y23.283
G1 X7.238 Y23.351
G1 X6.761 Y23.432
G1 X6.28 Y23.446
G1 X5.801 Y23.393
G1 X5.332 Y23.273
G1 X5.028 Y23.09
G1 X4.783 Y22.84
G1 X4.608 Y22.536
G1 X4.514 Y22.193
G1 X4.467 Y21.931
G1 X5.782 Y21.825
G1 X5.816 Y22.01
G1 X5.841 Y22.131
G1 X5.89 Y22.244
G1 X5.961 Y22.344
G1 X6.053 Y22.428
G1 X6.16 Y22.491
G1 X6.277 Y22.529
G1 X6.399 Y22.542
G1 X6.523 Y22.531
G1 X6.625 Y22.505
G1 X6.719 Y22.459
G1 X6.802 Y22.396
G1 X6.871 Y22.317
G1 X6.923 Y22.225
G1 X6.955 Y22.126
G1 X6.967 Y22.022
G1  Y21.917
G1 X6.892 Y21.744
G1 X6.799 Y21.585
G1 X6.682 Y21.443
G1 X6.541 Y21.322
G1 X6.198 Y21.04
G1 X5.842 Y20.773
G1 X5.634 Y20.607
G1 X5.338 Y20.364
G1 X5.07 Y20.092
G1 X4.832 Y19.793
G1 X4.627 Y19.47
G1 X4.534 Y19.271
G1 X4.46 Y19.064
G1 X4.405 Y18.852
G1 X4.37 Y18.634
G1 X8.308
G1  Y19.704
; Scan @ 25 mm/sec, 25% power
M9
M05 
G0 X3.748 Y18.65 F6000
; Layer C04
G91
G1 X0.625 F1500
M03 S63.75
G1 X3.935
M05 
G1 X1.652 F6000
M03 S63.75
G1 X1.595 F1500
M05 
G1 X1.469 F6000
M03 S63.75
G1 X0.664 F1500
M05 
G1 X0.625
G1 X0.025Y0.1
G1 X-0.625
M03 S63.75
G1 X-0.664
M05 
G1 X-1.232 F6000
M03 S63.75
G1 X-2.113 F1500
M05 
G1 X-1.396 F6000
M03 S63.75
G1 X-3.919 F1500
M05 
G1 X-0.625
G1 X0.016Y0.1
G1 X0.625
M03 S63.75
G1 X3.903
M05 
G1 X1.219 F6000
M03 S63.75
G1 X2.445 F1500
M05 
G1 X1.101 F6000
M03 S63.75
G1 X0.664 F1500
M05 
G1 X0.625
G1 X0.024Y0.1
G1 X-0.625
M03 S63.75
G1 X-0.664
M05 
G1 X-0.974
M03 S63.75
G1 X-2.739
M05 
G1 X-1.076 F6000
M03 S63.75
G1 X-3.877 F1500
M05 
G1 X-0.625
G1 X0.026Y0.1
G1 X0.625
M03 S63.75
G1 X3.851
M05 
G1 X0.97
M03 S63.75
G1 X2.945
M05 
G1 X0.898
M03 S63.75
G1 X0.665
M05 
G1 X0.625
G1 X0.024Y0.1
G1 X-0.625
M03 S63.75
G1 X-0.665
M05 
G1 X-0.826
M03 S63.75
G1 X-3.142
M05 
G1 X-0.869
M03 S63.75
G1 X-3.817
M05 
G1 X-0.625
G1 X0.036Y0.1
G1 X0.625
M03 S63.75
G1 X3.781
M05 
G1 X0.795
M03 S63.75
G1 X3.304
M05 
G1 X0.762
M03 S63.75
G1 X0.665
M05 
G1 X0.625
G1 X0.024Y0.1
G1 X-0.625
M03 S63.75
G1 X-0.664
M05 
G1 X-0.722
M03 S63.75
G1 X-3.444
M05 
G1 X-0.72
M03 S63.75
G1 X-3.737
M05 
G1 X-0.625
G1 X0.046Y0.1
G1 X0.625
M03 S63.75
G1 X3.691
M05 
G1 X0.667
M03 S63.75
G1 X1.481
M05 
G1 X0.647
M03 S63.75
G1 X1.432
M05 
G1 X0.683
M03 S63.75
G1 X0.665
M05 
G1 X0.625
G1 X0.024Y0.1
G1 X-0.625
M03 S63.75
G1 X-0.665
M05 
G1 X-0.662
M03 S63.75
G1 X-1.352
M05 
G1 X-0.885
M03 S63.75
G1 X-1.42
M05 
G1 X-0.615
M03 S63.75
G1 X-3.631
M05 
G1 X-0.625
G1 X0.064Y0.1
G1 X0.625
M03 S63.75
G1 X3.567
M05 
G1 X0.573
M03 S63.75
G1 X1.387
M05 
G1 X1.015 F6000
M03 S63.75
G1 X1.342 F1500
M05 
G1 X0.641
M03 S63.75
G1 X0.665
M05 
G1 X0.625
G1 X0.025Y0.1
G1 X-0.625
M03 S63.75
G1 X-0.666
M05 
G1 X-0.633
M03 S63.75
G1 X-1.328
M05 
G1 X-1.116 F6000
M03 S63.75
G1 X-1.364 F1500
M05 
G1 X-2.542 F6000
M03 S63.75
G1 X-1.502 F1500
M05 
G1 X-0.625
G1 X0.073Y0.1
G1 X0.625
M03 S63.75
G1 X1.534
M05 
G1 X2.404 F6000
M03 S63.75
G1 X1.356 F1500
M05 
G1 X1.203 F6000
M03 S63.75
G1 X1.31 F1500
M05 
G1 X0.629
M03 S63.75
G1 X0.666
M05 
G1 X0.625
G1 X0.024Y0.1
G1 X-0.625
M03 S63.75
G1 X-0.665
M05 
G1 X-0.63
M03 S63.75
G1 X-1.316
M05 
G1 X-1.241 F6000
M03 S63.75
G1 X-0.507 F1500
M05 
G1 X-3.11 F6000
M03 S63.75
G1 X-1.578 F1500
M05 
G1 X-0.625
G1 X0.08Y0.1
G1 X0.625
M03 S63.75
G1 X1.625
M05 
G1 X4.745 F6000
M03 S63.75
G1 X1.315 F1500
M05 
G1 X0.641
M03 S63.75
G1 X0.666
M05 
G1 X0.625
G1 X0.024Y0.1
G1 X-0.625
M03 S63.75
G1 X-0.666
M05 
G1 X-0.653
M03 S63.75
G1 X-1.312
M05 
G1 X-4.634 F6000
M03 S63.75
G1 X-1.661 F1500
M05 
G1 X-0.625
G1 X0.099Y0.1
G1 X0.625
M03 S63.75
G1 X1.69
M05 
G1 X4.5 F6000
M03 S63.75
G1 X1.32 F1500
M05 
G1 X0.675
M03 S63.75
G1 X0.666
M05 
G1 X0.625
G1 X0.024Y0.1
G1 X-0.625
M03 S63.75
G1 X-0.666
M05 
G1 X-0.701
M03 S63.75
G1 X-1.333
M05 
G1 X-4.346 F6000
M03 S63.75
G1 X-1.731 F1500
M05 
G1 X-0.625
G1 X0.119Y0.1
G1 X0.625
M03 S63.75
G1 X1.751
M05 
G1 X4.193 F6000
M03 S63.75
G1 X1.341 F1500
M05 
G1 X0.731
M03 S63.75
G1 X0.667
M05 
G1 X0.625
G1 X0.024Y0.1
G1 X-0.625
M03 S63.75
G1 X-0.667
M05 
G1 X-0.772
M03 S63.75
G1 X-1.355
M05 
G1 X-4.022 F6000
M03 S63.75
G1 X-1.77 F1500
M05 
G1 X-0.625
G1 X0.123Y0.1
G1 X0.625
M03 S63.75
G1 X1.776
M05 
G1 X3.847 F6000
M03 S63.75
G1 X1.384 F1500
M05 
G1 X0.814
M03 S63.75
G1 X0.666
M05 
G1 X0.625
G1 X0.025Y0.1
G1 X-0.625
M03 S63.75
G1 X-0.667
M05 
G1 X-0.866
M03 S63.75
G1 X-1.403
M05 
G1 X-1.068 F6000
M03 S63.75
G1 X-0.727 F1500
M05 
G1 X-1.889 F6000
M03 S63.75
G1 X-1.766 F1500
M05 
G1 X-0.625
G1 X0.131Y0.1
G1 X0.625
M03 S63.75
G1 X1.746
M05 
G1 X1.299 F6000
M03 S63.75
G1 X1.321 F1500
M05 
G1 X0.866
M03 S63.75
G1 X1.457
M05 
G1 X0.923
M03 S63.75
G1 X0.667
M05 
G1 X0.625
G1 X0.024Y0.1
G1 X-0.625
M03 S63.75
G1 X-0.667
M05 
G1 X-0.985
M03 S63.75
G1 X-1.595
M05 
G1 X-0.516
M03 S63.75
G1 X-1.478
M05 
G1 X-1.217 F6000
M03 S63.75
G1 X-1.711 F1500
M05 
G1 X-0.625
G1 X0.132Y0.1
G1 X0.625
M03 S63.75
G1 X1.677
M05 
G1 X1.135 F6000
M03 S63.75
G1 X3.523 F1500
M05 
G1 X1.059 F6000
M03 S63.75
G1 X0.667 F1500
M05 
G1 X0.625
G1 X0.025Y0.1
G1 X-0.625
M03 S63.75
G1 X-0.668
M05 
G1 X-1.133 F6000
M03 S63.75
G1 X-3.457 F1500
M05 
G1 X-1.077 F6000
M03 S63.75
G1 X-1.63 F1500
M05 
G1 X-0.625
G1 X0.122Y0.1
G1 X0.625
M03 S63.75
G1 X1.571
M05 
G1 X1.031 F6000
M03 S63.75
G1 X3.354 F1500
M05 
G1 X1.244 F6000
M03 S63.75
G1 X0.667 F1500
M05 
G1 X0.625
G1 X0.024Y0.1
G1 X-0.625
M03 S63.75
G1 X-0.667
M05 
G1 X-1.357 F6000
M03 S63.75
G1 X-3.249 F1500
M05 
G1 X-0.984
M03 S63.75
G1 X-1.514
M05 
G1 X-0.625
G1 X0.114Y0.1
G1 X0.625
M03 S63.75
G1 X1.445
M05 
G1 X0.955
M03 S63.75
G1 X3.116
M05 
G1 X1.498 F6000
M03 S63.75
G1 X0.668 F1500
M05 
G1 X0.625
G1 X0.024Y0.1
G1 X-0.625
M03 S63.75
G1 X-0.668
M05 
G1 X-1.66 F6000
M03 S63.75
G1 X-2.961 F1500
M05 
G1 X-0.936
M03 S63.75
G1 X-1.398
M05 
G1 X-0.625
G1 X0.067Y0.1
G1 X0.625
M03 S63.75
G1 X1.368
M05 
G1 X0.915
M03 S63.75
G1 X1.18
M05 
G1 X0.107
M03 S63.75
G1 X1.485
M05 
G1 X1.857 F6000
M03 S63.75
G1 X0.668 F1500
M05 
G1 X0.625
G1 X0.025Y0.1
G1 X-0.625
M03 S63.75
G1 X-0.669
M05 
G1 X-2.145 F6000
M03 S63.75
G1 X-0.926 F1500
M05 
G1 X-0.386
M03 S63.75
G1 X-1.179
M05 
G1 X-0.904
M03 S63.75
G1 X-1.339
M05 
G1 X-0.625
G1 X-1.421Y0.1 F6000
G1 X0.625 F1500
M03 S63.75
G1 X0.313
M05 
G1 X1.146 F6000
M03 S63.75
G1 X1.314 F1500
M05 
G1 X0.907
M03 S63.75
G1 X1.179
M05 
G1 X3.466 F6000
M03 S63.75
G1 X0.668 F1500
M05 
G1 X0.625
G1 X0.024Y0.1
G1 X-0.625
M03 S63.75
G1 X-0.668
M05 
G1 X-3.474 F6000
M03 S63.75
G1 X-1.179 F1500
M05 
G1 X-0.909
M03 S63.75
G1 X-1.299
M05 
G1 X-1.156 F6000
M03 S63.75
G1 X-1.335 F1500
M05 
G1 X-0.625
G1 X0.018Y0.1
G1 X0.625
M03 S63.75
G1 X1.336
M05 
G1 X1.14 F6000
M03 S63.75
G1 X1.31 F1500
M05 
G1 X0.912
M03 S63.75
G1 X1.178
M05 
G1 X3.482 F6000
M03 S63.75
G1 X0.668 F1500
M05 
G1 X0.625
G1 X0.025Y0.1
G1 X-0.625
M03 S63.75
G1 X-0.669
M05 
G1 X-3.49 F6000
M03 S63.75
G1 X-1.178 F1500
M05 
G1 X-0.933
M03 S63.75
G1 X-1.322
M05 
G1 X-1.098 F6000
M03 S63.75
G1 X-1.343 F1500
M05 
G1 X-0.625
G1 X0.023Y0.1
G1 X0.625
M03 S63.75
G1 X1.365
M05 
G1 X1.015 F6000
M03 S63.75
G1 X1.351 F1500
M05 
G1 X0.958
M03 S63.75
G1 X1.178
M05 
G1 X3.498 F6000
M03 S63.75
G1 X0.669 F1500
M05 
G1 X0.625
G1 X0.024Y0.1
G1 X-0.625
M03 S63.75
G1 X-0.669
M05 
G1 X-1.402 F6000
M03 S63.75
G1 X-3.281 F1500
M05 
G1 X-0.994
M03 S63.75
G1 X-1.399
M05 
G1 X-0.874
M03 S63.75
G1 X-1.411
M05 
G1 X-0.625
G1 X0.027Y0.1
G1 X0.625
M03 S63.75
G1 X1.506
M05 
G1 X0.641
M03 S63.75
G1 X1.484
M05 
G1 X1.036 F6000
M03 S63.75
G1 X3.265 F1500
M05 
G1 X1.426 F6000
M03 S63.75
G1 X0.67 F1500
M05 
G1 X0.625
G1 X0.024Y0.1
G1 X-0.625
M03 S63.75
G1 X-0.669
M05 
G1 X-1.451 F6000
M03 S63.75
G1 X-3.248 F1500
M05 
G1 X-1.088 F6000
M03 S63.75
G1 X-3.564 F1500
M05 
G1 X-0.625
G1 X0.057Y0.1
G1 X0.625
M03 S63.75
G1 X3.462
M05 
G1 X1.149 F6000
M03 S63.75
G1 X3.232 F1500
M05 
G1 X1.475 F6000
M03 S63.75
G1 X0.669 F1500
M05 
G1 X0.625
G1 X0.024Y0.1
G1 X-0.625
M03 S63.75
G1 X-0.669
M05 
G1 X-1.499 F6000
M03 S63.75
G1 X-3.216 F1500
M05 
G1 X-1.22 F6000
M03 S63.75
G1 X-3.349 F1500
M05 
G1 X-0.625
G1 X0.062Y0.1
G1 X0.625
M03 S63.75
G1 X3.219
M05 
G1 X1.305 F6000
M03 S63.75
G1 X3.199 F1500
M05 
G1 X1.523 F6000
M03 S63.75
G1 X0.67 F1500
M05 
G1 X0.625
G1 X0.024Y0.1
G1 X-0.625
M03 S63.75
G1 X-0.67
M05 
G1 X-1.547 F6000
M03 S63.75
G1 X-3.183 F1500
M05 
G1 X-1.405 F6000
M03 S63.75
G1 X-3.037 F1500
M05 
G1 X-0.625
G1 X0.097Y0.1
G1 X0.625
M03 S63.75
G1 X2.844
M05 
G1 X1.517 F6000
M03 S63.75
G1 X3.167 F1500
M05 
G1 X1.571 F6000
M03 S63.75
G1 X0.67 F1500
M05 
G1 X0.625
G1 X0.025Y0.1
G1 X-0.625
M03 S63.75
G1 X-0.67
M05 
G1 X-1.596 F6000
M03 S63.75
G1 X-3.15 F1500
M05 
G1 X-1.668 F6000
M03 S63.75
G1 X-2.571 F1500
M05 
G1 X-0.625
G1 X0.166Y0.1
G1 X0.625
M03 S63.75
G1 X2.229
M05 
G1 X1.86 F6000
M03 S63.75
G1 X3.134 F1500
M05 
G1 X1.62 F6000
M03 S63.75
G1 X0.67 F1500
M05 
G1 X0.625
G1 X0.024Y0.1
G1 X-0.625
M03 S63.75
G1 X-0.67
M05 
G1 X-1.644 F6000
M03 S63.75
G1 X-3.117 F1500
M05 
G1 X-2.159 F6000
M03 S63.75
G1 X-1.607 F1500
M05 
G1 X-0.625
G1 X9.753Y-0.91 F6000
G1 Y0.625 F1500
M03 S63.75
G1 Y0.374
M05 
G1 Y0.625
G1 X-0.1
G1 Y-0.625
M03 S63.75
G1 Y-0.785
M05 
G1 Y-0.625
G1 X-0.1Y-0.412
G1 Y0.625
M03 S63.75
G1 Y1.197
M05 
G1 Y0.625
G1 X-0.1
G1 Y-0.625
M03 S63.75
G1 Y-1.609
M05 
G1 Y-0.625
G1 X-0.1Y-0.411
G1 Y0.625
M03 S63.75
G1 Y2.02
M05 
G1 Y0.625
G1 X-0.1
G1 Y-0.625
M03 S63.75
G1 Y-2.432
M05 
G1 Y-0.625
G1 X-0.1Y-0.411
G1 Y0.625
M03 S63.75
G1 Y2.759
M05 
G1 Y0.625
G1 X-0.1Y-0.414
G1 Y-0.625
M03 S63.75
G1 Y-2.757
M05 
G1 Y-0.625
G1 X-0.1Y-0.412
G1 Y0.625
M03 S63.75
G1 Y2.755
M05 
G1 Y0.625
G1 X-0.1Y-0.414
G1 Y-0.625
M03 S63.75
G1 Y-2.752
M05 
G1 Y-0.625
G1 X-0.1Y-0.412
G1 Y0.625
M03 S63.75
G1 Y2.75
M05 
G1 Y0.625
G1 X-0.1Y-0.414
G1 Y-0.625
M03 S63.75
G1 Y-2.728
M05 
G1 Y-0.625
G1 X-0.1
G1 Y0.625
M03 S63.75
G1 Y2.314
M05 
G1 Y0.625
G1 X-0.1Y-0.414
G1 Y-0.625
M03 S63.75
G1 Y-1.9
M05 
G1 Y-0.625
G1 X-0.1
G1 Y0.625
M03 S63.75
G1 Y1.486
M05 
G1 Y0.625
G1 X-0.1Y-0.414
G1 Y-0.625
M03 S63.75
G1 Y-1.072
M05 
G1 Y-0.625
G1 X-0.1
G1 Y0.625
M03 S63.75
G1 Y0.658
M05 
G1 Y0.625
G1 X-0.1Y-0.414
G1 Y-0.625
M03 S63.75
G1 Y-0.244
M05 
G1 Y-0.625
G1 X-0.4Y1.207 F6000
G1 Y0.625 F1500
M03 S63.75
G1 Y1
M05 
G1 Y0.625
G1 X-0.1Y0.253
G1 Y-0.625
M03 S63.75
G1 Y-1.508
M05 
G1 Y-0.625
G1 X-0.1Y-0.176
G1 Y0.625
M03 S63.75
G1 Y1.857
M05 
G1 Y1.121 F6000
M03 S63.75
G1 Y1.048 F1500
M05 
G1 Y0.625
G1 X-0.1
G1 Y-0.625
M03 S63.75
G1 Y-1.048
M05 
G1 Y-1.006 F6000
M03 S63.75
G1 Y-2.112 F1500
M05 
G1 Y-0.625
G1 X-0.1Y-0.103
G1 Y0.625
M03 S63.75
G1 Y2.31
M05 
G1 Y0.911
M03 S63.75
G1 Y1.048
M05 
G1 Y0.625
G1 X-0.1
G1 Y-0.625
M03 S63.75
G1 Y-1.048
M05 
G1 Y-0.826
M03 S63.75
G1 Y-2.499
M05 
G1 Y-0.625
G1 X-0.1Y-0.077
G1 Y0.625
M03 S63.75
G1 Y2.643
M05 
G1 Y0.759
M03 S63.75
G1 Y1.048
M05 
G1 Y0.625
G1 X-0.1
G1 Y-0.625
M03 S63.75
G1 Y-1.048
M05 
G1 Y-0.697
M03 S63.75
G1 Y-2.771
M05 
G1 Y-0.625
G1 X-0.1Y-0.066
G1 Y0.625
M03 S63.75
G1 Y2.886
M05 
G1 Y0.648
M03 S63.75
G1 Y1.048
M05 
G1 Y0.625
G1 X-0.1
G1 Y-0.625
M03 S63.75
G1 Y-1.048
M05 
G1 Y-0.605
M03 S63.75
G1 Y-2.977
M05 
G1 Y-0.625
G1 X-0.1Y-0.039
G1 Y0.625
M03 S63.75
G1 Y3.051
M05 
G1 Y0.57
M03 S63.75
G1 Y1.048
M05 
G1 Y0.625
G1 X-0.1
G1 Y-0.625
M03 S63.75
G1 Y-1.048
M05 
G1 Y-0.544
M03 S63.75
G1 Y-3.115
M05 
G1 Y-0.625
G1 X-0.1Y-0.033
G1 Y0.625
M03 S63.75
G1 Y3.174
M05 
G1 Y0.518
M03 S63.75
G1 Y1.048
M05 
G1 Y0.625
G1 X-0.1
G1 Y-0.625
M03 S63.75
G1 Y-1.048
M05 
G1 Y-0.508
M03 S63.75
G1 Y-1.263
M05 
G1 Y-0.721
M03 S63.75
G1 Y-1.215
M05 
G1 Y-0.625
G1 X-0.1Y-0.015
G1 Y0.625
M03 S63.75
G1 Y1.014
M05 
G1 Y1.152 F6000
M03 S63.75
G1 Y1.059 F1500
M05 
G1 Y0.497
M03 S63.75
G1 Y1.048
M05 
G1 Y0.625
G1 X-0.1
G1 Y-0.625
M03 S63.75
G1 Y-1.048
M05 
G1 Y-0.496
M03 S63.75
G1 Y-0.954
M05 
G1 Y-1.365 F6000
M03 S63.75
G1 Y-0.921 F1500
M05 
G1 Y-0.625
G1 X-0.1Y-0.009
G1 Y0.625
M03 S63.75
G1 Y0.855
M05 
G1 Y1.5 F6000
M03 S63.75
G1 Y0.89 F1500
M05 
G1 Y0.5
M03 S63.75
G1 Y1.048
M05 
G1 Y0.625
G1 X-0.1
G1 Y-0.625
M03 S63.75
G1 Y-1.048
M05 
G1 Y-0.507
M03 S63.75
G1 Y-0.843
M05 
G1 Y-1.573 F6000
M03 S63.75
G1 Y-0.826 F1500
M05 
G1 Y-0.625
G1 X-0.1
G1 Y0.622
M03 S63.75
G1 Y0.8
M05 
G1 Y1.627 F6000
M03 S63.75
G1 Y0.798 F1500
M05 
G1 Y0.527
M03 S63.75
G1 Y1.048
M05 
G1 Y0.625
G1 X-0.1
G1 Y-0.625
M03 S63.75
G1 Y-1.048
M05 
G1 Y-0.547
M03 S63.75
G1 Y-0.768
M05 
G1 Y-1.634 F6000
M03 S63.75
G1 Y-0.807 F1500
M05 
G1 Y-0.625
G1 X-0.1
G1 Y0.629
M03 S63.75
G1 Y0.806
M05 
G1 Y1.625 F6000
M03 S63.75
G1 Y0.748 F1500
M05 
G1 Y0.573
M03 S63.75
G1 Y1.048
M05 
G1 Y0.625
G1 X-0.1
G1 Y-0.625
M03 S63.75
G1 Y-1.048
M05 
G1 Y-0.603
M03 S63.75
G1 Y-0.737
M05 
G1 Y-1.566 F6000
M03 S63.75
G1 Y-0.84 F1500
M05 
G1 Y-0.625
G1 X-0.1Y0.006
G1 Y0.625
M03 S63.75
G1 Y0.875
M05 
G1 Y1.492 F6000
M03 S63.75
G1 Y0.735 F1500
M05 
G1 Y0.638
M03 S63.75
G1 Y1.048
M05 
G1 Y0.625
G1 X-0.1
G1 Y-0.625
M03 S63.75
G1 Y-1.326
M05 
G1 Y-0.402
M03 S63.75
G1 Y-0.742
M05 
G1 Y-1.355 F6000
M03 S63.75
G1 Y-0.957 F1500
M05 
G1 Y-0.625
G1 X-0.1Y0.012
G1 Y0.625
M03 S63.75
G1 Y1.071
M05 
G1 Y1.153 F6000
M03 S63.75
G1 Y2.546 F1500
M05 
G1 Y0.625
G1 X-0.1
G1 Y-0.625
M03 S63.75
G1 Y-2.643
M05 
G1 Y-0.813
M03 S63.75
G1 Y-1.301
M05 
G1 Y-0.625
G1 X-0.1Y0.018
G1 Y0.625
M03 S63.75
G1 Y1.375
M05 
G1 Y0.669
M03 S63.75
G1 Y2.695
M05 
G1 Y0.625
G1 X-0.1
G1 Y-0.625
M03 S63.75
G1 Y-2.68
M05 
G1 Y-0.695
M03 S63.75
G1 Y-1.335
M05 
G1 Y-0.625
G1 X-0.1Y0.03
G1 Y0.625
M03 S63.75
G1 Y1.294
M05 
G1 Y0.72
M03 S63.75
G1 Y2.666
M05 
G1 Y0.625
G1 X-0.1
G1 Y-0.625
M03 S63.75
G1 Y-2.651
M05 
G1 Y-0.745
M03 S63.75
G1 Y-1.241
M05 
G1 Y-0.625
G1 X-0.1Y0.049
G1 Y0.625
M03 S63.75
G1 Y1.181
M05 
G1 Y0.77
M03 S63.75
G1 Y2.637
M05 
G1 Y0.625
G1 X-0.1
G1 Y-0.625
M03 S63.75
G1 Y-2.623
M05 
G1 Y-0.795
M03 S63.75
G1 Y-1.115
M05 
G1 Y-0.625
G1 X-0.1Y0.07
G1 Y0.625
M03 S63.75
G1 Y1.034
M05 
G1 Y0.821
M03 S63.75
G1 Y2.608
M05 
G1 Y0.625
G1 X-0.1Y-0.238
G1 Y-0.625
M03 S63.75
G1 Y-2.356
M05 
G1 Y-0.846
M03 S63.75
G1 Y-0.95
M05 
G1 Y-0.625
G1 X-0.1Y0.097
G1 Y0.625
M03 S63.75
G1 Y0.842
M05 
G1 Y0.872
M03 S63.75
G1 Y1.73
M05 
G1 Y0.625
G1 X-0.1Y-0.61
G1 Y-0.625
M03 S63.75
G1 Y-1.106
M05 
G1 Y-0.897
M03 S63.75
G1 Y-0.725
M05 
G1 Y-0.625
G1 X-0.1Y0.134
G1 Y0.625
M03 S63.75
G1 Y0.58
M05 
G1 Y0.922
M03 S63.75
G1 Y0.481
M05 
G1 Y0.625
G1 X-0.1Y-1.414 F6000
G1 Y-0.625 F1500
M03 S63.75
G1 Y-0.399
M05 
G1 Y-0.625
G1 X-0.1Y0.236
G1 Y0.625
M03 S63.75
G1 Y0.152
M05 
G1 Y0.625
G1 X-0.6Y2.374 F6000
G1 Y-0.625 F1500
M03 S63.75
G1 Y-0.282
M05 
G1 Y-2.252 F6000
M03 S63.75
G1 Y-1.07 F1500
M05 
G1 Y-0.625
G1 X-0.1
G1 Y0.625
M03 S63.75
G1 Y1.07
M05 
G1 Y1.826 F6000
M03 S63.75
G1 Y1.062 F1500
M05 
G1 Y0.625
G1 X-0.1Y0.186
G1 Y-0.625
M03 S63.75
G1 Y-1.47
M05 
G1 Y-1.604 F6000
M03 S63.75
G1 Y-1.07 F1500
M05 
G1 Y-0.625
G1 X-0.1
G1 Y0.625
M03 S63.75
G1 Y1.07
M05 
G1 Y1.446 F6000
M03 S63.75
G1 Y1.765 F1500
M05 
G1 Y0.625
G1 X-0.1Y0.105
G1 Y-0.625
M03 S63.75
G1 Y-1.996
M05 
G1 Y-1.32 F6000
M03 S63.75
G1 Y-1.07 F1500
M05 
G1 Y-0.625
G1 X-0.1
G1 Y0.625
M03 S63.75
G1 Y1.07
M05 
G1 Y1.218 F6000
M03 S63.75
G1 Y2.181 F1500
M05 
G1 Y0.625
G1 X-0.1Y0.075
G1 Y-0.625
M03 S63.75
G1 Y-2.357
M05 
G1 Y-1.117 F6000
M03 S63.75
G1 Y-1.07 F1500
M05 
G1 Y-0.625
G1 X-0.1
G1 Y0.625
M03 S63.75
G1 Y1.07
M05 
G1 Y1.031 F6000
M03 S63.75
G1 Y2.495 F1500
M05 
G1 Y0.625
G1 X-0.1Y0.051
G1 Y-0.625
M03 S63.75
G1 Y-2.632
M05 
G1 Y-0.945
M03 S63.75
G1 Y-1.07
M05 
G1 Y-0.625
G1 X-0.1
G1 Y0.625
M03 S63.75
G1 Y1.07
M05 
G1 Y0.866
M03 S63.75
G1 Y2.743
M05 
G1 Y0.625
G1 X-0.1Y0.03
G1 Y-0.625
M03 S63.75
G1 Y-2.845
M05 
G1 Y-0.794
M03 S63.75
G1 Y-1.07
M05 
G1 Y-0.625
G1 X-0.1
G1 Y0.625
M03 S63.75
G1 Y1.07
M05 
G1 Y0.722
M03 S63.75
G1 Y2.938
M05 
G1 Y0.625
G1 X-0.1Y0.017
G1 Y-0.625
M03 S63.75
G1 Y-3.027
M05 
G1 Y-0.65
M03 S63.75
G1 Y-1.07
M05 
G1 Y-0.625
G1 X-0.1
G1 Y0.625
M03 S63.75
G1 Y1.07
M05 
G1 Y0.579
M03 S63.75
G1 Y1.673
M05 
G1 Y0.117
M03 S63.75
G1 Y1.325
M05 
G1 Y0.625
G1 X-0.1Y0.017
G1 Y-0.625
M03 S63.75
G1 Y-1.087
M05 
G1 Y-0.637
M03 S63.75
G1 Y-1.484
M05 
G1 Y-0.503
M03 S63.75
G1 Y-1.07
M05 
G1 Y-0.625
G1 X-0.1
G1 Y0.625
M03 S63.75
G1 Y1.07
M05 
G1 Y0.424
M03 S63.75
G1 Y1.411
M05 
G1 Y0.888
M03 S63.75
G1 Y1.005
M05 
G1 Y0.625
G1 X-0.1
G1 Y-0.622
M03 S63.75
G1 Y-0.948
M05 
G1 Y-1.061 F6000
M03 S63.75
G1 Y-1.377 F1500
M05 
G1 Y-0.345
M03 S63.75
G1 Y-1.07
M05 
G1 Y-0.625
G1 X-0.1
G1 Y0.625
M03 S63.75
G1 Y1.07
M05 
G1 Y0.266
M03 S63.75
G1 Y1.369
M05 
G1 Y1.182 F6000
M03 S63.75
G1 Y0.916 F1500
M05 
G1 Y0.625
G1 X-0.1
G1 Y-0.622
M03 S63.75
G1 Y-0.903
M05 
G1 Y-1.281 F6000
M03 S63.75
G1 Y-1.365 F1500
M05 
G1 Y-0.187
M03 S63.75
G1 Y-1.07
M05 
G1 Y-0.625
G1 X-0.1
G1 Y0.625
M03 S63.75
G1 Y1.07
M05 
G1 Y0.098
M03 S63.75
G1 Y1.372
M05 
G1 Y1.364 F6000
M03 S63.75
G1 Y0.905 F1500
M05 
G1 Y0.625
G1 X-0.1
G1 Y-0.624
M03 S63.75
G1 Y-0.92
M05 
G1 Y-1.432 F6000
M03 S63.75
G1 Y-1.385 F1500
G1 Y-1.073
M05 
G1 Y-0.625
G1 X-0.1
G1 Y0.625
M03 S63.75
G1 Y2.379
M05 
G1 Y1.478 F6000
M03 S63.75
G1 Y0.942 F1500
M05 
G1 Y0.625
G1 X-0.1Y-0.012
G1 Y-0.625
M03 S63.75
G1 Y-0.988
M05 
G1 Y-1.495 F6000
M03 S63.75
G1 Y-2.304 F1500
M05 
G1 Y-0.625
G1 X-0.1
G1 Y0.625
M03 S63.75
G1 Y2.229
M05 
G1 Y1.481 F6000
M03 S63.75
G1 Y1.066 F1500
M05 
G1 Y0.625
G1 X-0.1Y-0.011
G1 Y-0.625
M03 S63.75
G1 Y-1.222
M05 
G1 Y-1.389 F6000
M03 S63.75
G1 Y-2.154 F1500
M05 
G1 Y-0.625
G1 X-0.1
G1 Y0.625
M03 S63.75
G1 Y2.075
M05 
G1 Y1.118 F6000
M03 S63.75
G1 Y1.556 F1500
M05 
G1 Y0.625
G1 X-0.1Y-0.026
G1 Y-0.625
M03 S63.75
G1 Y-1.522
M05 
G1 Y-1.206 F6000
M03 S63.75
G1 Y-1.995 F1500
M05 
G1 Y-0.625
G1 X-0.1
G1 Y0.625
M03 S63.75
G1 Y1.913
M05 
G1 Y1.296 F6000
M03 S63.75
G1 Y1.489 F1500
M05 
G1 Y0.625
G1 X-0.1Y-0.026
G1 Y-0.625
M03 S63.75
G1 Y-1.455
M05 
G1 Y-1.386 F6000
M03 S63.75
G1 Y-1.831 F1500
M05 
G1 Y-0.625
G1 X-0.1
G1 Y0.625
M03 S63.75
G1 Y1.749
M05 
G1 Y1.476 F6000
M03 S63.75
G1 Y1.422 F1500
M05 
G1 Y0.625
G1 X-0.1Y-0.05
G1 Y-0.625
M03 S63.75
G1 Y-1.364
M05 
G1 Y-1.581 F6000
M03 S63.75
G1 Y-1.652 F1500
M05 
G1 Y-0.625
G1 X-0.1
G1 Y0.625
M03 S63.75
G1 Y1.55
M05 
G1 Y1.691 F6000
M03 S63.75
G1 Y1.295 F1500
M05 
G1 Y0.625
G1 X-0.1Y-0.06
G1 Y-0.625
M03 S63.75
G1 Y-1.227
M05 
G1 Y-1.803 F6000
M03 S63.75
G1 Y-1.446 F1500
M05 
G1 Y-0.625
G1 X-0.1
G1 Y0.625
M03 S63.75
G1 Y1.321
M05 
G1 Y1.936 F6000
M03 S63.75
G1 Y1.131 F1500
M05 
G1 Y0.625
G1 X-0.1Y-0.102
G1 Y-0.625
M03 S63.75
G1 Y-1.021
M05 
G1 Y-2.07 F6000
M03 S63.75
G1 Y-1.195 F1500
M05 
G1 Y-0.625
G1 X-0.1
G1 Y0.625
M03 S63.75
G1 Y1.047
M05 
G1 Y2.227 F6000
M03 S63.75
G1 Y0.894 F1500
M05 
G1 Y0.625
G1 X-0.1Y-0.174
G1 Y-0.625
M03 S63.75
G1 Y-0.712
M05 
G1 Y-2.392 F6000
M03 S63.75
G1 Y-0.89 F1500
M05 
G1 Y-0.625
G1 X-0.1
G1 Y0.625
M03 S63.75
G1 Y0.695
M05 
G1 Y2.595 F6000
M03 S63.75
G1 Y0.442 F1500
M05 
G1 Y0.625
G1 X-0.1Y-3.299 F6000
G1 Y-0.625 F1500
M03 S63.75
G1 Y-0.433
M05 
G1 Y-0.625
G90
; Cut @ 25 mm/sec, 50% power
M9
M05 
G0 X26.87 Y18.634 F6000
; Layer C05
M03 S127.5
G1 X30.808 F1500
G1  Y19.704
G1 X28.759
G1 X28.927 Y19.865
G1 X29.411 Y20.246
G1 X29.911 Y20.605
G1 X30.167 Y20.826
G1 X30.417 Y21.08
G1 X30.605 Y21.379
G1 X30.727 Y21.71
G1 X30.776 Y22.063
G1 X30.757 Y22.291
G1 X30.699 Y22.508
G1 X30.608 Y22.709
G1 X30.485 Y22.891
G1 X30.333 Y23.05
G1 X30.156 Y23.182
G1 X29.956 Y23.283
G1 X29.738 Y23.351
G1 X29.261 Y23.432
G1 X28.78 Y23.446
G1 X28.301 Y23.393
G1 X27.832 Y23.273
G1 X27.528 Y23.09
G1 X27.283 Y22.84
G1 X27.108 Y22.536
G1 X27.014 Y22.193
G1 X26.967 Y21.931
G1 X28.282 Y21.825
G1 X28.316 Y22.01
G1 X28.341 Y22.131
G1 X28.39 Y22.244
G1 X28.461 Y22.344
G1 X28.553 Y22.428
G1 X28.66 Y22.491
G1 X28.777 Y22.529
G1 X28.899 Y22.542
G1 X29.023 Y22.531
G1 X29.125 Y22.505
G1 X29.219 Y22.459
G1 X29.302 Y22.396
G1 X29.371 Y22.317
G1 X29.423 Y22.225
G1 X29.455 Y22.126
G1 X29.467 Y22.022
G1  Y21.917
G1 X29.392 Y21.744
G1 X29.299 Y21.585
G1 X29.182 Y21.443
G1 X29.041 Y21.322
G1 X28.698 Y21.04
G1 X28.342 Y20.773
G1 X28.134 Y20.607
G1 X27.838 Y20.364
G1 X27.57 Y20.092
G1 X27.332 Y19.793
G1 X27.127 Y19.47
G1 X27.034 Y19.271
G1 X26.96 Y19.064
G1 X26.906 Y18.852
G1 X26.87 Y18.634
M05 
G0 X31.399 Y19.596 F6000
M03 S127.5
G1 X31.524 Y19.356 F1500
G1 X31.684 Y19.141
G1 X31.875 Y18.956
G1 X32.093 Y18.804
G1 X32.334 Y18.687
G1 X32.594 Y18.61
G1 X32.868 Y18.576
G1 X33.24 Y18.554
G1 X33.613 Y18.568
G1 X33.981 Y18.622
G1 X34.324 Y18.753
G1 X34.631 Y18.955
G1 X34.889 Y19.222
G1 X35.031 Y19.442
G1 X35.136 Y19.676
G1 X35.205 Y19.92
G1 X35.237 Y20.171
G1  Y20.424
G1 X35.19 Y20.675
G1 X35.111 Y20.919
G1 X34.994 Y21.152
G1 X34.828 Y21.343
G1 X34.638 Y21.504
G1 X34.429 Y21.634
G1 X34.204 Y21.73
G1 X33.967 Y21.792
G1 X33.723 Y21.818
G1 X33.474 Y21.807
G1 X33.226 Y21.757
G1 X33.005 Y21.691
G1 X32.793 Y21.602
G1 X32.905 Y22.311
G1 X35.016
G1  Y23.359
G1 X31.9
G1 X31.484 Y20.82
G1 X32.602 Y20.658
G1 X32.754 Y20.808
G1 X32.866 Y20.892
G1 X32.988 Y20.951
G1 X33.116 Y20.987
G1 X33.249 Y20.998
G1 X33.381 Y20.984
G1 X33.509 Y20.947
G1 X33.63 Y20.886
G1 X33.74 Y20.8
G1 X33.879 Y20.501
G1 X33.926 Y20.181
G1 X33.88 Y19.861
G1 X33.742 Y19.561
G1 X33.572 Y19.425
G1 X33.372 Y19.359
G1 X33.161
G1 X32.96 Y19.446
G1 X32.835 Y19.557
G1 X32.739 Y19.69
G1 X32.673 Y19.841
G1 X32.641 Y20.004
G1 X31.313 Y19.859
G1 X31.399 Y19.596
M05 
G0 X35.502 Y18.557 F6000
M03 S127.5
G1 X36.166 F1500
G1 X37.352 Y23.439
G1 X36.682
G1 X35.502 Y18.557
; Scan @ 25 mm/sec, 50% power
M9
M05 
G0 X26.248 Y18.65 F6000
; Layer C05
G91
G1 X0.625 F1500
M03 S127.5
G1 X3.935
M05 
G1 X1.652 F6000
M03 S127.5
G1 X1.595 F1500
M05 
G1 X1.47 F6000
M03 S127.5
G1 X0.663 F1500
M05 
G1 X0.625
G1 X0.025Y0.1
G1 X-0.625
M03 S127.5
G1 X-0.664
M05 
G1 X-1.232 F6000
M03 S127.5
G1 X-2.113 F1500
M05 
G1 X-1.396 F6000
M03 S127.5
G1 X-3.919 F1500
M05 
G1 X-0.625
G1 X0.016Y0.1
G1 X0.625
M03 S127.5
G1 X3.903
M05 
G1 X1.219 F6000
M03 S127.5
G1 X2.445 F1500
M05 
G1 X1.101 F6000
M03 S127.5
G1 X0.664 F1500
M05 
G1 X0.625
G1 X0.024Y0.1
G1 X-0.625
M03 S127.5
G1 X-0.664
M05 
G1 X-0.974
M03 S127.5
G1 X-2.739
M05 
G1 X-1.076 F6000
M03 S127.5
G1 X-3.877 F1500
M05 
G1 X-0.625
G1 X0.026Y0.1
G1 X0.625
M03 S127.5
G1 X3.851
M05 
G1 X0.97
M03 S127.5
G1 X2.945
M05 
G1 X0.898
M03 S127.5
G1 X0.665
M05 
G1 X0.625
G1 X0.024Y0.1
G1 X-0.625
M03 S127.5
G1 X-0.665
M05 
G1 X-0.826
M03 S127.5
G1 X-3.142
M05 
G1 X-0.869
M03 S127.5
G1 X-3.817
M05 
G1 X-0.625
G1 X0.036Y0.1
G1 X0.625
M03 S127.5
G1 X3.781
M05 
G1 X0.795
M03 S127.5
G1 X3.304
M05 
G1 X0.762
M03 S127.5
G1 X0.665
M05 
G1 X0.625
G1 X0.024Y0.1
G1 X-0.625
M03 S127.5
G1 X-0.664
M05 
G1 X-0.722
M03 S127.5
G1 X-3.444
M05 
G1 X-0.72
M03 S127.5
G1 X-3.737
M05 
G1 X-0.625
G1 X0.046Y0.1
G1 X0.625
M03 S127.5
G1 X3.691
M05 
G1 X0.667
M03 S127.5
G1 X1.481
M05 
G1 X0.647
M03 S127.5
G1 X1.432
M05 
G1 X0.683
M03 S127.5
G1 X0.665
M05 
G1 X0.625
G1 X0.024Y0.1
G1 X-0.625
M03 S127.5
G1 X-0.665
M05 
G1 X-0.662
M03 S127.5
G1 X-1.352
M05 
G1 X-0.885
M03 S127.5
G1 X-1.42
M05 
G1 X-0.615
M03 S127.5
G1 X-3.631
M05 
G1 X-0.625
G1 X0.064Y0.1
G1 X0.625
M03 S127.5
G1 X3.567
M05 
G1 X0.573
M03 S127.5
G1 X1.387
M05 
G1 X1.015 F6000
M03 S127.5
G1 X1.342 F1500
M05 
G1 X0.641
M03 S127.5
G1 X0.665
M05 
G1 X0.625
G1 X0.025Y0.1
G1 X-0.625
M03 S127.5
G1 X-0.666
M05 
G1 X-0.633
M03 S127.5
G1 X-1.328
M05 
G1 X-1.116 F6000
M03 S127.5
G1 X-1.364 F1500
M05 
G1 X-2.542 F6000
M03 S127.5
G1 X-1.502 F1500
M05 
G1 X-0.625
G1 X0.073Y0.1
G1 X0.625
M03 S127.5
G1 X1.534
M05 
G1 X2.404 F6000
M03 S127.5
G1 X1.356 F1500
M05 
G1 X1.203 F6000
M03 S127.5
G1 X1.31 F1500
M05 
G1 X0.629
M03 S127.5
G1 X0.666
M05 
G1 X0.625
G1 X0.024Y0.1
G1 X-0.625
M03 S127.5
G1 X-0.665
M05 
G1 X-0.63
M03 S127.5
G1 X-1.316
M05 
G1 X-1.241 F6000
M03 S127.5
G1 X-0.507 F1500
M05 
G1 X-3.11 F6000
M03 S127.5
G1 X-1.578 F1500
M05 
G1 X-0.625
G1 X0.08Y0.1
G1 X0.625
M03 S127.5
G1 X1.625
M05 
G1 X4.745 F6000
M03 S127.5
G1 X1.315 F1500
M05 
G1 X0.641
M03 S127.5
G1 X0.666
M05 
G1 X0.625
G1 X0.024Y0.1
G1 X-0.625
M03 S127.5
G1 X-0.666
M05 
G1 X-0.653
M03 S127.5
G1 X-1.312
M05 
G1 X-4.634 F6000
M03 S127.5
G1 X-1.661 F1500
M05 
G1 X-0.625
G1 X0.099Y0.1
G1 X0.625
M03 S127.5
G1 X1.69
M05 
G1 X4.5 F6000
M03 S127.5
G1 X1.32 F1500
M05 
G1 X0.675
M03 S127.5
G1 X0.666
M05 
G1 X0.625
G1 X0.024Y0.1
G1 X-0.625
M03 S127.5
G1 X-0.666
M05 
G1 X-0.701
M03 S127.5
G1 X-1.333
M05 
G1 X-4.346 F6000
M03 S127.5
G1 X-1.731 F1500
M05 
G1 X-0.625
G1 X0.119Y0.1
G1 X0.625
M03 S127.5
G1 X1.751
M05 
G1 X4.193 F6000
M03 S127.5
G1 X1.341 F1500
M05 
G1 X0.731
M03 S127.5
G1 X0.667
M05 
G1 X0.625
G1 X0.024Y0.1
G1 X-0.625
M03 S127.5
G1 X-0.667
M05 
G1 X-0.772
M03 S127.5
G1 X-1.355
M05 
G1 X-4.022 F6000
M03 S127.5
G1 X-1.77 F1500
M05 
G1 X-0.625
G1 X0.123Y0.1
G1 X0.625
M03 S127.5
G1 X1.776
M05 
G1 X3.847 F6000
M03 S127.5
G1 X1.384 F1500
M05 
G1 X0.814
M03 S127.5
G1 X0.666
M05 
G1 X0.625
G1 X0.025Y0.1
G1 X-0.625
M03 S127.5
G1 X-0.667
M05 
G1 X-0.866
M03 S127.5
G1 X-1.403
M05 
G1 X-1.068 F6000
M03 S127.5
G1 X-0.727 F1500
M05 
G1 X-1.889 F6000
M03 S127.5
G1 X-1.766 F1500
M05 
G1 X-0.625
G1 X0.131Y0.1
G1 X0.625
M03 S127.5
G1 X1.746
M05 
G1 X1.299 F6000
M03 S127.5
G1 X1.321 F1500
M05 
G1 X0.866
M03 S127.5
G1 X1.457
M05 
G1 X0.923
M03 S127.5
G1 X0.667
M05 
G1 X0.625
G1 X0.024Y0.1
G1 X-0.625
M03 S127.5
G1 X-0.667
M05 
G1 X-0.985
M03 S127.5
G1 X-1.595
M05 
G1 X-0.516
M03 S127.5
G1 X-1.478
M05 
G1 X-1.217 F6000
M03 S127.5
G1 X-1.711 F1500
M05 
G1 X-0.625
G1 X0.132Y0.1
G1 X0.625
M03 S127.5
G1 X1.677
M05 
G1 X1.135 F6000
M03 S127.5
G1 X3.523 F1500
M05 
G1 X1.059 F6000
M03 S127.5
G1 X0.667 F1500
M05 
G1 X0.625
G1 X0.025Y0.1
G1 X-0.625
M03 S127.5
G1 X-0.668
M05 
G1 X-1.133 F6000
M03 S127.5
G1 X-3.457 F1500
M05 
G1 X-1.077 F6000
M03 S127.5
G1 X-1.629 F1500
M05 
G1 X-0.625
G1 X0.121Y0.1
G1 X0.625
M03 S127.5
G1 X1.571
M05 
G1 X1.031 F6000
M03 S127.5
G1 X3.354 F1500
M05 
G1 X1.244 F6000
M03 S127.5
G1 X0.667 F1500
M05 
G1 X0.625
G1 X0.024Y0.1
G1 X-0.625
M03 S127.5
G1 X-0.667
M05 
G1 X-1.357 F6000
M03 S127.5
G1 X-3.249 F1500
M05 
G1 X-0.984
M03 S127.5
G1 X-1.514
M05 
G1 X-0.625
G1 X0.114Y0.1
G1 X0.625
M03 S127.5
G1 X1.445
M05 
G1 X0.955
M03 S127.5
G1 X3.116
M05 
G1 X1.498 F6000
M03 S127.5
G1 X0.668 F1500
M05 
G1 X0.625
G1 X0.024Y0.1
G1 X-0.625
M03 S127.5
G1 X-0.668
M05 
G1 X-1.66 F6000
M03 S127.5
G1 X-2.961 F1500
M05 
G1 X-0.936
M03 S127.5
G1 X-1.398
M05 
G1 X-0.625
G1 X0.067Y0.1
G1 X0.625
M03 S127.5
G1 X1.368
M05 
G1 X0.915
M03 S127.5
G1 X1.18
M05 
G1 X0.107
M03 S127.5
G1 X1.485
M05 
G1 X1.857 F6000
M03 S127.5
G1 X0.668 F1500
M05 
G1 X0.625
G1 X0.025Y0.1
G1 X-0.625
M03 S127.5
G1 X-0.669
M05 
G1 X-2.145 F6000
M03 S127.5
G1 X-0.926 F1500
M05 
G1 X-0.386
M03 S127.5
G1 X-1.179
M05 
G1 X-0.904
M03 S127.5
G1 X-1.339
M05 
G1 X-0.625
G1 X-1.421Y0.1 F6000
G1 X0.625 F1500
M03 S127.5
G1 X0.313
M05 
G1 X1.146 F6000
M03 S127.5
G1 X1.314 F1500
M05 
G1 X0.907
M03 S127.5
G1 X1.179
M05 
G1 X3.466 F6000
M03 S127.5
G1 X0.668 F1500
M05 
G1 X0.625
G1 X0.024Y0.1
G1 X-0.625
M03 S127.5
G1 X-0.668
M05 
G1 X-3.474 F6000
M03 S127.5
G1 X-1.179 F1500
M05 
G1 X-0.909
M03 S127.5
G1 X-1.299
M05 
G1 X-1.156 F6000
M03 S127.5
G1 X-1.335 F1500
M05 
G1 X-0.625
G1 X0.018Y0.1
G1 X0.625
M03 S127.5
G1 X1.336
M05 
G1 X1.14 F6000
M03 S127.5
G1 X1.31 F1500
M05 
G1 X0.912
M03 S127.5
G1 X1.178
M05 
G1 X3.482 F6000
M03 S127.5
G1 X0.668 F1500
M05 
G1 X0.625
G1 X0.025Y0.1
G1 X-0.625
M03 S127.5
G1 X-0.669
M05 
G1 X-3.49 F6000
M03 S127.5
G1 X-1.178 F1500
M05 
G1 X-0.933
M03 S127.5
G1 X-1.322
M05 
G1 X-1.098 F6000
M03 S127.5
G1 X-1.343 F1500
M05 
G1 X-0.625
G1 X0.023Y0.1
G1 X0.625
M03 S127.5
G1 X1.365
M05 
G1 X1.015 F6000
M03 S127.5
G1 X1.351 F1500
M05 
G1 X0.958
M03 S127.5
G1 X1.178
M05 
G1 X3.498 F6000
M03 S127.5
G1 X0.669 F1500
M05 
G1 X0.625
G1 X0.024Y0.1
G1 X-0.625
M03 S127.5
G1 X-0.669
M05 
G1 X-1.402 F6000
M03 S127.5
G1 X-3.281 F1500
M05 
G1 X-0.994
M03 S127.5
G1 X-1.399
M05 
G1 X-0.874
M03 S127.5
G1 X-1.411
M05 
G1 X-0.625
G1 X0.027Y0.1
G1 X0.625
M03 S127.5
G1 X1.506
M05 
G1 X0.641
M03 S127.5
G1 X1.484
M05 
G1 X1.036 F6000
M03 S127.5
G1 X3.265 F1500
M05 
G1 X1.426 F6000
M03 S127.5
G1 X0.67 F1500
M05 
G1 X0.625
G1 X0.024Y0.1
G1 X-0.625
M03 S127.5
G1 X-0.669
M05 
G1 X-1.451 F6000
M03 S127.5
G1 X-3.248 F1500
M05 
G1 X-1.088 F6000
M03 S127.5
G1 X-3.564 F1500
M05 
G1 X-0.625
G1 X0.057Y0.1
G1 X0.625
M03 S127.5
G1 X3.462
M05 
G1 X1.149 F6000
M03 S127.5
G1 X3.232 F1500
M05 
G1 X1.475 F6000
M03 S127.5
G1 X0.669 F1500
M05 
G1 X0.625
G1 X0.024Y0.1
G1 X-0.625
M03 S127.5
G1 X-0.669
M05 
G1 X-1.499 F6000
M03 S127.5
G1 X-3.216 F1500
M05 
G1 X-1.22 F6000
M03 S127.5
G1 X-3.349 F1500
M05 
G1 X-0.625
G1 X0.062Y0.1
G1 X0.625
M03 S127.5
G1 X3.219
M05 
G1 X1.305 F6000
M03 S127.5
G1 X3.199 F1500
M05 
G1 X1.523 F6000
M03 S127.5
G1 X0.67 F1500
M05 
G1 X0.625
G1 X0.024Y0.1
G1 X-0.625
M03 S127.5
G1 X-0.67
M05 
G1 X-1.547 F6000
M03 S127.5
G1 X-3.183 F1500
M05 
G1 X-1.405 F6000
M03 S127.5
G1 X-3.037 F1500
M05 
G1 X-0.625
G1 X0.097Y0.1
G1 X0.625
M03 S127.5
G1 X2.845
M05 
G1 X1.516 F6000
M03 S127.5
G1 X3.167 F1500
M05 
G1 X1.571 F6000
M03 S127.5
G1 X0.67 F1500
M05 
G1 X0.625
G1 X0.025Y0.1
G1 X-0.625
M03 S127.5
G1 X-0.67
M05 
G1 X-1.596 F6000
M03 S127.5
G1 X-3.15 F1500
M05 
G1 X-1.668 F6000
M03 S127.5
G1 X-2.571 F1500
M05 
G1 X-0.625
G1 X0.166Y0.1
G1 X0.625
M03 S127.5
G1 X2.229
M05 
G1 X1.86 F6000
M03 S127.5
G1 X3.134 F1500
M05 
G1 X1.62 F6000
M03 S127.5
G1 X0.67 F1500
M05 
G1 X0.625
G1 X0.024Y0.1
G1 X-0.625
M03 S127.5
G1 X-0.67
M05 
G1 X-1.644 F6000
M03 S127.5
G1 X-3.117 F1500
M05 
G1 X-2.159 F6000
M03 S127.5
G1 X-1.607 F1500
M05 
G1 X-0.625
G1 X9.753Y-0.91 F6000
G1 Y0.625 F1500
M03 S127.5
G1 Y0.374
M05 
G1 Y0.625
G1 X-0.1
G1 Y-0.625
M03 S127.5
G1 Y-0.785
M05 
G1 Y-0.625
G1 X-0.1Y-0.412
G1 Y0.625
M03 S127.5
G1 Y1.197
M05 
G1 Y0.625
G1 X-0.1
G1 Y-0.625
M03 S127.5
G1 Y-1.609
M05 
G1 Y-0.625
G1 X-0.1Y-0.411
G1 Y0.625
M03 S127.5
G1 Y2.02
M05 
G1 Y0.625
G1 X-0.1
G1 Y-0.625
M03 S127.5
G1 Y-2.432
M05 
G1 Y-0.625
G1 X-0.1Y-0.411
G1 Y0.625
M03 S127.5
G1 Y2.759
M05 
G1 Y0.625
G1 X-0.1Y-0.414
G1 Y-0.625
M03 S127.5
G1 Y-2.757
M05 
G1 Y-0.625
G1 X-0.1Y-0.412
G1 Y0.625
M03 S127.5
G1 Y2.755
M05 
G1 Y0.625
G1 X-0.1Y-0.414
G1 Y-0.625
M03 S127.5
G1 Y-2.752
M05 
G1 Y-0.625
G1 X-0.1Y-0.412
G1 Y0.625
M03 S127.5
G1 Y2.75
M05 
G1 Y0.625
G1 X-0.1Y-0.414
G1 Y-0.625
M03 S127.5
G1 Y-2.728
M05 
G1 Y-0.625
G1 X-0.1
G1 Y0.625
M03 S127.5
G1 Y2.314
M05 
G1 Y0.625
G1 X-0.1Y-0.414
G1 Y-0.625
M03 S127.5
G1 Y-1.9
M05 
G1 Y-0.625
G1 X-0.1
G1 Y0.625
M03 S127.5
G1 Y1.486
M05 
G1 Y0.625
G1 X-0.1Y-0.414
G1 Y-0.625
M03 S127.5
G1 Y-1.072
M05 
G1 Y-0.625
G1 X-0.1
G1 Y0.625
M03 S127.5
G1 Y0.658
M05 
G1 Y0.625
G1 X-0.1Y-0.414
G1 Y-0.625
M03 S127.5
G1 Y-0.244
M05 
G1 Y-0.625
G1 X-0.4Y1.207 F6000
G1 Y0.625 F1500
M03 S127.5
G1 Y1
M05 
G1 Y0.625
G1 X-0.1Y0.253
G1 Y-0.625
M03 S127.5
G1 Y-1.508
M05 
G1 Y-0.625
G1 X-0.1Y-0.176
G1 Y0.625
M03 S127.5
G1 Y1.857
M05 
G1 Y1.121 F6000
M03 S127.5
G1 Y1.048 F1500
M05 
G1 Y0.625
G1 X-0.1
G1 Y-0.625
M03 S127.5
G1 Y-1.048
M05 
G1 Y-1.006 F6000
M03 S127.5
G1 Y-2.112 F1500
M05 
G1 Y-0.625
G1 X-0.1Y-0.103
G1 Y0.625
M03 S127.5
G1 Y2.31
M05 
G1 Y0.911
M03 S127.5
G1 Y1.048
M05 
G1 Y0.625
G1 X-0.1
G1 Y-0.625
M03 S127.5
G1 Y-1.048
M05 
G1 Y-0.826
M03 S127.5
G1 Y-2.499
M05 
G1 Y-0.625
G1 X-0.1Y-0.077
G1 Y0.625
M03 S127.5
G1 Y2.643
M05 
G1 Y0.759
M03 S127.5
G1 Y1.048
M05 
G1 Y0.625
G1 X-0.1
G1 Y-0.625
M03 S127.5
G1 Y-1.048
M05 
G1 Y-0.697
M03 S127.5
G1 Y-2.771
M05 
G1 Y-0.625
G1 X-0.1Y-0.066
G1 Y0.625
M03 S127.5
G1 Y2.886
M05 
G1 Y0.648
M03 S127.5
G1 Y1.048
M05 
G1 Y0.625
G1 X-0.1
G1 Y-0.625
M03 S127.5
G1 Y-1.048
M05 
G1 Y-0.605
M03 S127.5
G1 Y-2.977
M05 
G1 Y-0.625
G1 X-0.1Y-0.039
G1 Y0.625
M03 S127.5
G1 Y3.051
M05 
G1 Y0.57
M03 S127.5
G1 Y1.048
M05 
G1 Y0.625
G1 X-0.1
G1 Y-0.625
M03 S127.5
G1 Y-1.048
M05 
G1 Y-0.544
M03 S127.5
G1 Y-3.115
M05 
G1 Y-0.625
G1 X-0.1Y-0.033
G1 Y0.625
M03 S127.5
G1 Y3.174
M05 
G1 Y0.518
M03 S127.5
G1 Y1.048
M05 
G1 Y0.625
G1 X-0.1
G1 Y-0.625
M03 S127.5
G1 Y-1.048
M05 
G1 Y-0.508
M03 S127.5
G1 Y-1.263
M05 
G1 Y-0.721
M03 S127.5
G1 Y-1.215
M05 
G1 Y-0.625
G1 X-0.1Y-0.015
G1 Y0.625
M03 S127.5
G1 Y1.014
M05 
G1 Y1.152 F6000
M03 S127.5
G1 Y1.059 F1500
M05 
G1 Y0.497
M03 S127.5
G1 Y1.048
M05 
G1 Y0.625
G1 X-0.1
G1 Y-0.625
M03 S127.5
G1 Y-1.048
M05 
G1 Y-0.496
M03 S127.5
G1 Y-0.954
M05 
G1 Y-1.365 F6000
M03 S127.5
G1 Y-0.921 F1500
M05 
G1 Y-0.625
G1 X-0.1Y-0.009
G1 Y0.625
M03 S127.5
G1 Y0.855
M05 
G1 Y1.5 F6000
M03 S127.5
G1 Y0.89 F1500
M05 
G1 Y0.5
M03 S127.5
G1 Y1.048
M05 
G1 Y0.625
G1 X-0.1
G1 Y-0.625
M03 S127.5
G1 Y-1.048
M05 
G1 Y-0.507
M03 S127.5
G1 Y-0.843
M05 
G1 Y-1.573 F6000
M03 S127.5
G1 Y-0.826 F1500
M05 
G1 Y-0.625
G1 X-0.1
G1 Y0.622
M03 S127.5
G1 Y0.8
M05 
G1 Y1.627 F6000
M03 S127.5
G1 Y0.798 F1500
M05 
G1 Y0.527
M03 S127.5
G1 Y1.048
M05 
G1 Y0.625
G1 X-0.1
G1 Y-0.625
M03 S127.5
G1 Y-1.048
M05 
G1 Y-0.547
M03 S127.5
G1 Y-0.768
M05 
G1 Y-1.634 F6000
M03 S127.5
G1 Y-0.807 F1500
M05 
G1 Y-0.625
G1 X-0.1
G1 Y0.629
M03 S127.5
G1 Y0.806
M05 
G1 Y1.625 F6000
M03 S127.5
G1 Y0.748 F1500
M05 
G1 Y0.573
M03 S127.5
G1 Y1.048
M05 
G1 Y0.625
G1 X-0.1
G1 Y-0.625
M03 S127.5
G1 Y-1.048
M05 
G1 Y-0.603
M03 S127.5
G1 Y-0.737
M05 
G1 Y-1.566 F6000
M03 S127.5
G1 Y-0.84 F1500
M05 
G1 Y-0.625
G1 X-0.1Y0.006
G1 Y0.625
M03 S127.5
G1 Y0.875
M05 
G1 Y1.492 F6000
M03 S127.5
G1 Y0.735 F1500
M05 
G1 Y0.638
M03 S127.5
G1 Y1.048
M05 
G1 Y0.625
G1 X-0.1
G1 Y-0.625
M03 S127.5
G1 Y-1.326
M05 
G1 Y-0.402
M03 S127.5
G1 Y-0.742
M05 
G1 Y-1.355 F6000
M03 S127.5
G1 Y-0.957 F1500
M05 
G1 Y-0.625
G1 X-0.1Y0.012
G1 Y0.625
M03 S127.5
G1 Y1.071
M05 
G1 Y1.153 F6000
M03 S127.5
G1 Y2.546 F1500
M05 
G1 Y0.625
G1 X-0.1
G1 Y-0.625
M03 S127.5
G1 Y-2.643
M05 
G1 Y-0.813
M03 S127.5
G1 Y-1.301
M05 
G1 Y-0.625
G1 X-0.1Y0.018
G1 Y0.625
M03 S127.5
G1 Y1.375
M05 
G1 Y0.669
M03 S127.5
G1 Y2.695
M05 
G1 Y0.625
G1 X-0.1
G1 Y-0.625
M03 S127.5
G1 Y-2.68
M05 
G1 Y-0.695
M03 S127.5
G1 Y-1.335
M05 
G1 Y-0.625
G1 X-0.1Y0.03
G1 Y0.625
M03 S127.5
G1 Y1.294
M05 
G1 Y0.72
M03 S127.5
G1 Y2.666
M05 
G1 Y0.625
G1 X-0.1
G1 Y-0.625
M03 S127.5
G1 Y-2.651
M05 
G1 Y-0.745
M03 S127.5
G1 Y-1.241
M05 
G1 Y-0.625
G1 X-0.1Y0.049
G1 Y0.625
M03 S127.5
G1 Y1.181
M05 
G1 Y0.77
M03 S127.5
G1 Y2.637
M05 
G1 Y0.625
G1 X-0.1
G1 Y-0.625
M03 S127.5
G1 Y-2.623
M05 
G1 Y-0.795
M03 S127.5
G1 Y-1.115
M05 
G1 Y-0.625
G1 X-0.1Y0.07
G1 Y0.625
M03 S127.5
G1 Y1.034
M05 
G1 Y0.821
M03 S127.5
G1 Y2.608
M05 
G1 Y0.625
G1 X-0.1Y-0.238
G1 Y-0.625
M03 S127.5
G1 Y-2.356
M05 
G1 Y-0.846
